!!!!SEGMENT: pl-wtm--r-711-m--005_moniuszko-stanislaw--litania-ostrobramska-agnus-dei.krn
!!!cenid: 18xx:1739
!!!COM: Moniuszko, Stanisław
!!!COM-rismid: pe30008351
!!!CDT: 1819/05/05-1872/06/04
!!!CNT: Polish
!!!OTL: Litania Ostrobramska – Agnus Dei
!!!PDT: 1849
!!!AGN: Sacred; Mass
!!!OMD:[[Grave.]]
!!!SMS-siglum: PL-Wtm
!!!SMS-shelfmark: R 711/M
!!!SMS-shelfwork: 001-005 M
!!!SMS-variant:
!!!SMS-altvar:
!!!NIFC-rismid: 1001091106
!!!URL-scan: http://repozytorium.nifc.pl/skany/pl-wtm-nut--r711m
!!!ONB-nifc: UWAGA: części Litanii: 1. Kyrie, 2. Christe audi nos, 3. Ora pro nobis, 4. Rosa mistica, 5. Agnus Dei
**kern	**dynam	**kern	**dynam	**kern	**text	**dynam	**kern	**text	**text	**dynam	**kern	**text	**text	**dynam	**kern	**text	**dynam	**kern	**dynam	**kern	**dynam	**kern	**dynam	**kern	**dynam	**kern	**dynam	**kern	**dynam	**kern	**dynam	**kern	**dynam	**kern	**dynam	**kern	**dynam
*part16	*part16	*part15	*part15	*part14	*part14	*part14	*part13	*part13	*part13	*part13	*part12	*part12	*part12	*part12	*part11	*part11	*part11	*part10	*part10	*part9	*part9	*part8	*part8	*part7	*part7	*part6	*part6	*part5	*part5	*part4	*part4	*part3	*part3	*part2	*part2	*part1	*part1
*staff16	*	*staff15	*	*staff14	*staff14	*	*staff13	*staff13	*staff13	*	*staff12	*staff12	*staff12	*	*staff11	*staff11	*	*staff10	*	*staff9	*	*staff8	*	*staff7	*	*staff6	*	*staff5	*	*staff4	*	*staff3	*	*staff2	*	*staff1	*
*I"CbS.	*	*I"Vcello.	*	*I"C	*	*	*I"o	*	*	*	*I"r	*	*	*	*I"o.	*	*	*I"Vla	*	*I"V. 2.	*	*I"V. 1.	*	*I"Trombon	*	*I"Tromba. in C.	*	*I"in B. Corni.	*	*I"Fagotto.	*	*I"in B. Clarinetti.	*	*I"Oboi.	*	*I"Flauti.	*
*clefF4	*	*clefF4	*	*clefF4	*	*	*clefC4	*	*	*	*clefC3	*	*	*	*clefC1	*	*	*clefC3	*	*clefG2	*	*clefG2	*	*clefF4	*	*clefG2	*	*clefG2	*	*clefF4	*	*clefG2	*	*clefG2	*	*clefG2	*
*ITrd0c0	*	*	*	*	*	*	*	*	*	*	*	*	*	*	*	*	*	*	*	*	*	*	*	*	*	*	*	*ITrd1c2	*	*	*	*ITrd1c2	*	*	*	*	*
*k[b-e-a-]	*	*k[b-e-a-]	*	*k[b-e-a-]	*	*	*k[b-e-a-]	*	*	*	*k[b-e-a-]	*	*	*	*k[b-e-a-]	*	*	*k[b-e-a-]	*	*k[b-e-a-]	*	*k[b-e-a-]	*	*k[b-e-a-]	*	*k[]	*	*k[b-e-]	*	*k[b-e-a-]	*	*k[b-e-a-]	*	*k[b-e-a-]	*	*k[b-e-a-]	*
*f:	*	*f:	*	*f:	*	*	*f:	*	*	*	*f:	*	*	*	*f:	*	*	*f:	*	*f:	*	*f:	*	*f:	*	*f:	*	*f:	*	*f:	*	*f:	*	*f:	*	*f:	*
*M6/8	*	*M6/8	*	*M6/8	*	*	*M6/8	*	*	*	*M6/8	*	*	*	*M6/8	*	*	*M6/8	*	*M6/8	*	*M6/8	*	*M6/8	*	*M6/8	*	*M6/8	*	*M6/8	*	*M6/8	*	*M6/4	*	*M6/4	*
=1	=1	=1	=1	=1	=1	=1	=1	=1	=1	=1	=1	=1	=1	=1	=1	=1	=1	=1	=1	=1	=1	=1	=1	=1	=1	=1	=1	=1	=1	=1	=1	=1	=1	=1	=1	=1	=1
*	*	*	*	*	*	*	*	*	*	*	*	*	*	*	*	*	*	*	*	*	*	*	*	*	*	*	*	*^	*	*	*	*^	*	*	*	*^	*
*all\right	*	*all\right	*	*all\right	*	*	*all\right	*	*	*	*all\right	*	*	*	*all\right	*	*	*all\right	*	*all\right	*	*all\right	*	*all\right	*	*all\right	*	*all\right	*	*	*all\right	*	*all\right	*	*	*all\right	*	*all\right	*	*
*	*	*	*	*	*	*below	*	*	*	*	*	*	*	*	*	*	*below	*	*	*	*	*	*	*	*	*	*	*	*2\right	*	*	*	*	*2\right	*	*	*	*2\right	*	*
!	!	!	!	!	!	!	!	!	!	!	!	!	!	!	!	!	!	!	!	!	!	!	!	!	!	!	!	!	!	!	!	!	!	!	!	!	!	!LO:TX:t=P:problem:all\left or right:global	!	!
!	!	!	!	!	!	!	!	!	!	!	!	!	!	!LO:DY:rj	!	!	!	!	!	!	!	!	!	!	!	!	!	!	!	!	!	!	!	!	!	!LO:TX:t=P:problem:oznaczenie metryczne 6/4	!	!	!	!
!	!LO:DY:rj:t=f.	!	!LO:DY:rj:t=f.	!LO:N:vis=4.	!	!LO:DY:rj	!	!	!	!LO:DY:rj	!	!	!	!	!	!	!	!LO:SIC:v:n=2:s=4B-\	!	!	!LO:DY:rj	!	!LO:DY:rj	!	!LO:DY:rj	!	!LO:DY:rj	!	!	!LO:DY:rj	!	!LO:DY:rj	!	!	!LO:DY:rj	!	!LO:DY:rj	!	!	!
4C\	f	4C\	f	4C/	Ag-	f	4c\	Ag-	.	f	4en\	A-	.	f	4cc\	A-	f	4g\ 4B#\	.	4en/ 4G/	f	4cc\	f	4.C\	f	[2.cc/ [2.c/ 2.G/	f	2.cc/	2.b-\	f	4.En\	f	[2.cc/	[>2.b-\	f	4.en/	f	[2.ccc/	[2.bb-\	ff
!	!	!	!	!	!	!	!	!	!	!	!	!	!	!	!	!	!	!LO:SIC:v:n=2:s=8B-\	!	!	!	!	!	!	!	!	!	!	!	!	!	!	!	!	!	!	!	!	!	!
*	*	*	*	*	*ij	*	*	*ij	*	*	*	*	*	*	*	*	*	*	*	*	*	*	*	*	*	*	*	*	*	*	*	*	*	*	*	*	*	*	*	*
8C\	.	8C\	.	8C/	-nus	.	8c\	-nus	.	.	8e\	-gnus	.	.	8cc\	-gnus	.	8g\ 8B#\	.	8e/ 8G/	.	8cc\	.	.	.	.	.	.	.	.	.	.	.	.	.	.	.	.	.	.
!	!	!	!	!	!	!	!	!	!	!	!	!	!	!	!	!	!	!LO:SIC:v:n=2:s=4B-\	!	!	!	!	!	!	!	!	!	!	!	!	!	!	!	!	!	!	!	!	!	!
4D\	.	4D\	.	4.D/	De-	.	4.c\	De-	.	.	4.f\	De-	.	.	4cc\	De-	.	4g\ 4B#\	.	4f/ 4G/	.	4cc\	.	4.D\	.	.	.	.	.	.	4.F\	.	.	.	.	4.f/	.	.	.	.
!	!	!	!	!	!	!	!	!	!	!	!	!	!	!	!	!	!	!LO:SIC:v:n=2:s=8B-\	!	!	!	!	!	!	!	!	!	!	!	!	!	!	!	!	!	!	!	!	!	!
8D\	.	8D\	.	.	.	.	.	.	.	.	.	.	.	.	8cc\	-i	.	8g\ 8B#X\	.	8f/ 8G/	.	8cc\	.	.	.	.	.	.	.	.	.	.	.	.	.	.	.	.	.	.
=2	=2	=2	=2	=2	=2	=2	=2	=2	=2	=2	=2	=2	=2	=2	=2	=2	=2	=2	=2	=2	=2	=2	=2	=2	=2	=2	=2	=2	=2	=2	=2	=2	=2	=2	=2	=2	=2	=2	=2	=2
*	*	*	*	*	*	*	*	*	*	*	*	*	*	*	*	*	*	*	*	*	*	*rep	*	*	*	*	*	*	*	*	*	*	*	*	*	*	*	*	*	*
4En\	.	4En\	.	8En\	-i	.	4c\	-i	.	.	4g\	-i	.	.	4cc\	A-	.	4g\ 4B-\	.	4g/ 4G/	.	4cc\	.	4.En\	.	2.cc/_ 2.c/_	.	2.cc/	[2.b-\	.	4.G\	.	2.cc/_	2.b-\_>	.	4.g/	.	2.ccc/_	2.bb-\_	.
.	.	.	.	8r	.	.	.	.	.	.	.	.	.	.	.	.	.	.	.	.	.	.	.	.	.	.	.	.	.	.	.	.	.	.	.	.	.	.	.	.
8E\	.	8E\	.	8E\	qui	.	8c\	qui	.	.	8g\	qui	.	.	8cc\	-gnus	.	8g\ 8B-\	.	8g/ 8G/	.	8cc\	.	.	.	.	.	.	.	.	.	.	.	.	.	.	.	.	.	.
!	!	!	!	!	!	!	!	!	!	!	!	!	!	!	!	!	!	!	!	!LO:SIC:v:n=2:s=4G	!	!	!	!	!	!	!	!	!	!	!	!	!	!	!	!LO:TX:t=P:problem:skreślona nuta	!	!	!	!
4F\	.	4F\	.	4.F\	tol-	.	4.c\	tol-	.	.	4.f\	tol-	.	.	8.cc\	De-	.	4f\ 4B-\	.	4f/ 4B-/	.	4cc\	.	4.F\	.	.	.	.	.	.	4.A-\	.	.	.	.	4.f\	.	.	.	.
.	.	.	.	.	.	.	.	.	.	.	.	.	.	.	16cc\	-i	.	.	.	.	.	.	.	.	.	.	.	.	.	.	.	.	.	.	.	.	.	.	.	.
8F\	.	8F\	.	.	.	.	.	.	.	.	.	.	.	.	8cc\	qui	.	8f\ 8B-\	.	8f/ 8G/	.	8cc\	.	.	.	.	.	.	.	.	.	.	.	.	.	.	.	.	.	.
*	*	*	*	*	*	*	*	*	*	*	*	*	*	*	*	*	*	*	*	*	*	*Xrep	*	*	*	*	*	*	*	*	*	*	*	*	*	*	*	*	*	*
=3	=3	=3	=3	=3	=3	=3	=3	=3	=3	=3	=3	=3	=3	=3	=3	=3	=3	=3	=3	=3	=3	=3	=3	=3	=3	=3	=3	=3	=3	=3	=3	=3	=3	=3	=3	=3	=3	=3	=3	=3
4G\	.	4G\	.	8G\	-lis	.	4c\	-lis	.	.	4en\	-lis	.	.	8.cc\	tol-	.	4B-/	.	4en/	.	4cc\	.	4.G\	.	4cc/] 4c/]	.	4.cc/	4.b-\]	.	4.B-\	.	4.cc/]	4.b-\]	.	4cc\	.	(4.ccc/_	4.bb-\]	.
.	.	.	.	8r	.	.	.	.	.	.	.	.	.	.	.	.	.	.	.	.	.	.	.	.	.	.	.	.	.	.	.	.	.	.	.	.	.	.	.	.
.	.	.	.	.	.	.	.	.	.	.	.	.	.	.	16cc\	-lis	.	.	.	.	.	.	.	.	.	.	.	.	.	.	.	.	.	.	.	.	.	.	.	.
8G\	.	8G\	.	8G\	pec-	.	8c\	pec-	.	.	8e\	pec-	.	.	8cc\	pec-	.	8B-/	.	8e/	.	8cc\	.	.	.	8r	.	.	.	.	.	.	.	.	.	[8cc\	.	.	.	.
4A-\	.	4A-\	.	4A-\	-ca-	.	4A-X\	-ca-	.	.	4f\	-ca-	.	.	8cc\L	-ca-	.	8A-|/	.	8f|/	.	(8cc\L	.	4.A-\	.	4r	.	4ff/	4f\	.	4A-\	.	8cc/L	8a-\L	.	(8cc\L]	.	8ccc\]L 8aa-\	4ryy	.
.	.	.	.	.	.	.	.	.	.	.	.	.	.	.	8b-\J	.	.	8r	.	8r	.	8b-\)	.	.	.	.	.	.	.	.	.	.	8b-/	8g\	.	8b-\	.	8bb-\ 8gg\	.	.
8F\	.	8F\	.	8F\	-ta	.	8c\	-ta	.	.	8f\	-ta	.	.	8a-\	-ta	.	8c/	.	8f/	.	8a-\J	.	.	.	8r	.	8r	8ryy	.	8F\	.	8a-/J	8f\J	.	8a-\J)	.	8aa-\J 8ff\)	8ryy	.
*	*	*	*	*	*	*	*	*	*	*	*	*	*	*	*	*	*	*	*	*	*	*	*	*	*	*	*	*	*	*	*	*	*	*	*	*	*	*v	*v	*
=4	=4	=4	=4	=4	=4	=4	=4	=4	=4	=4	=4	=4	=4	=4	=4	=4	=4	=4	=4	=4	=4	=4	=4	=4	=4	=4	=4	=4	=4	=4	=4	=4	=4	=4	=4	=4	=4	=4	=4
4B-\	.	4B-\	.	4.B-\	mun-	.	4.B-\	mun-	.	.	4.e-X\	mun-	.	.	4.g/	mun-	.	4B-/	.	4e-/	.	4g/	.	4.B-\	.	2.r	.	[4.b-/	[<4.b-\	.	2.ryy	.	(4.g/	(4.e-\	.	(4.g/	.	(4.gg\ 4.ee-\	>
8B-\	.	8B-\	.	.	.	.	.	.	.	.	.	.	.	.	.	.	.	8B-/	.	8e-/	.	8g/	.	.	.	.	.	.	.	.	.	.	.	.	.	.	.	.	.
8BB-/	.	8BB-/	.	4BB-/	-di	.	4B-\	-di	.	.	4d\	-di	.	.	4f/	-di	.	8B-|/	.	8d|/	.	(8f/L	.	4BB-/	.	.	.	4b-/]	4b-\]	.	.	.	4f/)	4d\)	.	4f/)	.	4ff\ 4dd\)	]
*	*	*	*	*	*Xij	*	*	*Xij	*	*	*	*	*	*	*	*	*	*	*	*	*	*	*	*	*	*	*	*	*	*	*	*	*	*	*	*	*	*	*
8r	.	8r	.	.	.	.	.	.	.	.	.	.	.	.	.	.	.	8r	.	8r	.	8b-/	.	.	.	.	.	.	.	.	.	.	.	.	.	.	.	.	.
!	!	!	!	!	!	!	!LO:TX:t=P:problem:brak pauzy 8	!	!	!	!LO:TX:t=P:problem:brak pauzy 8	!	!	!	!	!	!	!	!	!	!	!	!	!	!	!	!	!	!	!	!	!	!LO:TX:t=P:problem:brak pauzy 8	!	!	!LO:TX:t=P:problem:brak pauzy 8	!	!	!
8r	.	8B-\	.	8r	.	.	8ryy	.	.	.	8ryy	.	.	.	8ryy	.	.	8d|\	.	8f|/	.	8a-/J)	.	8r	.	.	.	8ryy	8ryy	.	.	.	8ryy	8ryy	.	8ryy	.	8r	.
*	*	*	*	*	*	*	*	*	*	*	*	*	*	*	*	*	*	*	*	*	*	*	*	*	*	*	*	*v	*v	*	*	*	*v	*v	*	*	*	*	*
!!LO:PB:g=original
=5	=5	=5	=5	=5	=5	=5	=5	=5	=5	=5	=5	=5	=5	=5	=5	=5	=5	=5	=5	=5	=5	=5	=5	=5	=5	=5	=5	=5	=5	=5	=5	=5	=5	=5	=5	=5	=5
*2\right	*	*	*	*	*	*	*	*	*	*	*	*	*	*	*	*	*	*	*	*	*	*	*	*	*	*	*	*	*	*	*	*	*	*	*	*	*
!	!LO:DY:rj	!	!LO:DY:rj	!	!	!	!LO:TX:a:i:t=Solo.	!	!	!LO:DY:rj	!LO:TX:a:i:t=Solo.	!	!	!	!LO:TX:a:i:t=Solo.	!	!LO:DY:b:rj	!	!LO:DY:rj	!	!LO:DY:rj	!	!LO:DY:rj	!	!	!	!	!	!	!	!	!	!	!	!	!	!
[2.E-\	p	4E-\	p	2.r	.	.	4.e-\	.	.	p	4.e-\	par-	.	.	4g\	par-	p	4e-\	p	4e-/	p	(8g/L	p	2.ryy	.	2.ryy	.	2.ryy	.	2.ryy	.	2.ryy	.	2.ryy	.	2.ryy	.
.	.	.	.	.	.	.	.	.	.	.	.	.	.	.	.	.	.	.	.	.	.	8e-/)	.	.	.	.	.	.	.	.	.	.	.	.	.	.	.
.	.	8E-|\	.	.	.	.	.	.	.	.	.	.	.	.	8g\	-ce	.	8e-\	.	8e-/	.	8g/J	.	.	.	.	.	.	.	.	.	.	.	.	.	.	.
!	!	!	!	!	!	!	!	!	!	!	!LO:N:vis=4	!	!	!	!	!	!	!	!	!	!	!	!	!	!	!	!	!	!	!	!	!	!	!	!	!	!
.	.	4E-\	.	.	.	.	4.d\	.	.	.	4.f\	-ce	.	.	4b-\	no-	.	4d\	.	4f|/	.	8b-/	.	.	.	.	.	.	.	.	.	.	.	.	.	.	.
.	.	.	.	.	.	.	.	.	.	.	.	.	.	.	.	.	.	.	.	.	.	8r	.	.	.	.	.	.	.	.	.	.	.	.	.	.	.
.	.	8E-|\	.	.	.	.	.	.	.	.	.	.	.	.	8b-\	-bis	.	8d\	.	8f|/	.	8b-/	.	.	.	.	.	.	.	.	.	.	.	.	.	.	.
=6	=6	=6	=6	=6	=6	=6	=6	=6	=6	=6	=6	=6	=6	=6	=6	=6	=6	=6	=6	=6	=6	=6	=6	=6	=6	=6	=6	=6	=6	=6	=6	=6	=6	=6	=6	=6	=6
2.E-\_	.	4E-\	.	2.r	.	.	(4c\	no-	.	.	4.g\	par-	.	.	4ee-\	par-	.	4c|\	.	4g|/	.	(4ee-\	.	2.ryy	.	2.ryy	.	2.ryy	.	2.ryy	.	2.ryy	.	2.ryy	.	2.ryy	.
.	.	8E-|\	.	.	.	.	8B-\)	.	[[bis	.	.	.	.	.	8dd\	-ce	.	8B-|/	.	8e-|/	.	8dd\	.	.	.	.	.	.	.	.	.	.	.	.	.	.	.
!	!	!	!	!	!	!	!	!	!	!	!LO:TX:t=P:problem:niejednoznaczny zapis wysokości	!	!	!	!	!	!	!	!	!	!	!	!	!	!	!	!	!	!	!	!	!	!	!	!	!	!
!	!	!	!	!	!	!	!	!	!	!	!LO:N:vis=4	!	!	!	!	!	!	!	!	!	!	!	!	!	!	!	!	!	!	!	!	!	!	!	!	!	!
.	.	4E-\	.	.	.	.	4A-\	-bis	Do-	.	4.e-\	-ce	[[bis	.	4cc\	no-	.	4A-|/	.	4e-|/	.	4cc\	.	.	.	.	.	.	.	.	.	.	.	.	.	.	.
.	.	8E-|\	.	.	.	.	8G\	.	-mi]]	.	.	.	.	.	8b-\	-bis	.	8G|/	.	8e-|/	.	8b-\)	.	.	.	.	.	.	.	.	.	.	.	.	.	.	.
=7	=7	=7	=7	=7	=7	=7	=7	=7	=7	=7	=7	=7	=7	=7	=7	=7	=7	=7	=7	=7	=7	=7	=7	=7	=7	=7	=7	=7	=7	=7	=7	=7	=7	=7	=7	=7	=7
4.E-\_	.	4E-\	.	2.r	.	.	4F/	Do-	.	.	(4.d\	no-	Do]]	.	4b-\	par-	.	4F|/	.	4d|/	.	(4b-\	.	2.ryy	.	2.ryy	.	2.ryy	.	4r	.	2.ryy	.	2.ryy	.	2.ryy	.
.	.	8E-|\	.	.	.	.	8B-\	-mi-	.	.	.	.	.	.	8a-\	-ce	.	8B-|/	.	8d|/	.	8a-\	.	.	.	.	.	.	.	8r	.	.	.	.	.	.	.
8E-\]	.	4E-\	.	.	.	.	4E-/	-ne	.	.	8e-\L	.	.	.	8g\L	no-	.	8B-|/	.	8e-|/	.	8g\L	.	.	.	.	.	.	.	[4.e-^\	fp	.	.	.	.	.	.
8r	.	.	.	.	.	.	.	.	.	.	8d\J	.	.	.	8b-\J	.	.	8r	.	8r	.	8b-\)	.	.	.	.	.	.	.	.	.	.	.	.	.	.	.
8AA-/	.	8AA-|/	.	.	.	.	8r	.	.	.	8c\)	-bis	.	.	8a-\	-bis	.	8e-\	.	8c/	.	8a-\J	.	.	.	.	.	.	.	.	.	.	.	.	.	.	.
=8	=8	=8	=8	=8	=8	=8	=8	=8	=8	=8	=8	=8	=8	=8	=8	=8	=8	=8	=8	=8	=8	=8	=8	=8	=8	=8	=8	=8	=8	=8	=8	=8	=8	=8	=8	=8	=8
4BB-/	.	4BB-/	.	2.r	.	.	2.r	.	.	.	4B-/	Do-	.	.	4g\	Do-	.	4e-\	.	4B-/	.	4g/	.	2.ryy	.	2.ryy	.	2.r	.	4.e-\]	.	2.ryy	.	2.ryy	.	2.ryy	.
8BB-/	.	8BB-|/	.	.	.	.	.	.	.	.	8B-/	-mi-	.	.	8g\	-mi-	.	8B-/	.	8e-/	.	8g/	.	.	.	.	.	.	.	.	.	.	.	.	.	.	.
!	!	!	!LO:HP:a	!	!	!	!	!	!	!	!	!	!	!	!	!	!	!	!	!	!	!	!	!	!	!	!	!	!	!	!	!	!	!	!	!	!
(8.B-\L	<	(8.B-\L	<	.	.	.	.	.	.	.	8B-/	-ne.	.	.	(8f\L	-ne	.	(8.B-/L	<	4d-X/	.	8f/L	<	.	.	.	.	.	.	4.d-X\	.	.	.	.	.	.	.
.	.	.	.	.	.	.	.	.	.	.	8r	.	.	.	8b-\	.	.	.	.	.	.	8b-/	.	.	.	.	.	.	.	.	.	.	.	.	.	.	.
16A-\L	.	16A-\L	.	.	.	.	.	.	.	.	.	.	.	.	.	.	.	16A-/L	.	.	.	.	.	.	.	.	.	.	.	.	.	.	.	.	.	.	.
16G\	[	16G\	[	.	.	.	.	.	.	.	8r	.	.	f	8dd-X\J)	.	.	16G/	[	8B-/	.	8dd-X/J	[	.	.	.	.	.	.	.	.	.	.	.	.	.	.
16F\JJ)	.	16F\JJ)	.	.	.	.	.	.	.	.	.	.	.	.	.	.	.	16F/JJ)	.	.	.	.	.	.	.	.	.	.	.	.	.	.	.	.	.	.	.
=9	=9	=9	=9	=9	=9	=9	=9	=9	=9	=9	=9	=9	=9	=9	=9	=9	=9	=9	=9	=9	=9	=9	=9	=9	=9	=9	=9	=9	=9	=9	=9	=9	=9	=9	=9	=9	=9
*	*	*	*	*	*	*	*	*	*	*	*	*	*	*	*	*	*	*	*	*	*	*	*	*	*	*^	*	*^	*	*	*	*^	*	*	*	*^	*
*	*	*	*	*	*	*	*	*	*	*	*	*	*	*	*	*	*	*	*	*	*	*	*	*	*	*	*2\right	*	*	*	*	*	*	*	*	*	*	*	*	*	*
!	!	!	!	!	!	!	!	!	!	!	!LO:TX:t=P:problem:skreślone nuty	!	!	!	!	!	!	!	!	!	!	!	!	!	!	!	!	!	!	!	!	!	!	!	!	!	!	!	!	!	!
!	!	!	!	!LO:TX:a:t=tutti.	!	!LO:DY:rj	!LO:TX:a:i:t=tutti.	!	!	!LO:DY:rj	!LO:TX:a:t=tutti	!	!	!	!LO:TX:a:i:t=tutti.	!	!LO:DY:b:rj	!	!LO:DY:rj	!	!LO:DY:rj	!	!	!	!LO:DY:rj	!	!	!LO:DY:rj:t=f.	!	!	!LO:DY:rj:t=f.	!	!LO:DY:rj:t=f.	!	!	!LO:DY:rj	!	!LO:DY:rj	!	!	!LO:DY:rj
4En\	f	4En\	f	4En\	A-	f	[4c\	A-	.	f	4g\	A-	.	.	4cc\	A-	f	4En/	f	4g/ 4B-/	f	4cc\	f	4.En\	f	[2.cc/	[2.c\	f	[2.cc/	[>2.b-\	f	4.G\	f	2.cc/	2.b-\	f	4.g/	f	[2.ccc/	[>2.bb-\	f
8E\	.	8E\	.	8E\	-gnus	.	8c\]	-gnus	.	.	8g\	-gnus	.	.	8cc\	-gnus	.	8E/	.	8g/ 8B-/	.	8cc\	.	.	.	.	.	.	.	.	.	.	.	.	.	.	.	.	.	.	.
!	!	!	!	!	!	!	!	!	!	!	!	!	!	!	!	!	!	!	!	!	!	!	!	!	!	!	!	!	!	!	!	!LO:TX:t=P:problem:skreślone nuty	!	!	!	!	!LO:TX:t=P:problem:skreślona nuta	!	!	!	!
4F\	.	4F\	.	4.F\	De	.	4.c\	De	.	.	4.f\	De-	.	.	4cc\	De-	.	4F/	.	4f/ 4B-/	.	4cc\	.	4.F\	.	.	.	.	.	.	.	4.F\	.	.	.	.	4.f\	.	.	.	.
8F\	.	8F\	.	.	.	.	.	.	.	.	.	.	.	.	8cc\	-i	.	8F/	.	8f/ 8B-/	.	8cc\	.	.	.	.	.	.	.	.	.	.	.	.	.	.	.	.	.	.	.
!!LO:PB:g=original
=10	=10	=10	=10	=10	=10	=10	=10	=10	=10	=10	=10	=10	=10	=10	=10	=10	=10	=10	=10	=10	=10	=10	=10	=10	=10	=10	=10	=10	=10	=10	=10	=10	=10	=10	=10	=10	=10	=10	=10	=10	=10
*	*	*	*	*	*	*	*	*	*	*	*	*	*	*	*	*	*	*	*	*	*	*rep	*	*	*	*	*	*	*	*	*	*	*	*	*	*	*	*	*	*	*
!	!	!	!	!	!	!	!	!	!	!	!	!	!	!	!	!	!	!	!	!	!	!	!	!	!	!	!	!	!LO:TX:t=P:problem:brak zakończenia ligatur	!	!	!	!	!	!	!	!	!	!LO:TX:t=P:problem:brak zakończenia ligatur	!	!
4G-X\	.	4G-X\	.	8G-X\	.	.	8c\	.	.	.	8en\	-i	.	.	4cc\	A-	.	4G-X/	.	4en/ 4c/	.	4cc\	.	4.G-X\	.	4.cc/_	4.c\_	.	2.cc/]	2.b-\]	.	(4.G-X\	.	2.cc/	2.b-\	.	2.en/	.	(2.ccc/]	2.bb-\]	.
.	.	.	.	8r	.	.	8r	.	.	.	8r	.	.	.	.	.	.	.	.	.	.	.	.	.	.	.	.	.	.	.	.	.	.	.	.	.	.	.	.	.	.
8G-\	.	8G-\	.	8G-\	.	.	8c\	.	.	.	8e\	qui	.	.	8cc\	-gnus	.	8G-/	.	8e/ 8c/	.	8cc\	.	.	.	.	.	.	.	.	.	.	.	.	.	.	.	.	.	.	.
4Gn\	.	4Gn\	.	4.Gn\	.	.	4.c\	.	.	.	4.c\	tol-	.	.	8.cc\	De-	.	4Gn/	.	4e/ 4c/	.	4cc\	.	4.Gn\	.	4.cc/]	4.c\]	.	.	.	.	4.Gn\	.	.	.	.	.	.	.	.	.
.	.	.	.	.	.	.	.	.	.	.	.	.	.	.	16cc\	-i	.	.	.	.	.	.	.	.	.	.	.	.	.	.	.	.	.	.	.	.	.	.	.	.	.
8G\	.	8G\	.	.	.	.	.	.	.	.	.	.	.	.	8cc\	qui	.	8G/	.	8e/ 8c/	.	8cc\	.	.	.	.	.	.	.	.	.	.	.	.	.	.	.	.	.	.	.
*	*	*	*	*	*	*	*	*	*	*	*	*	*	*	*	*	*	*	*	*	*	*Xrep	*	*	*	*	*	*	*	*	*	*	*	*	*	*	*	*	*	*	*
*	*	*	*	*	*	*	*	*	*	*	*	*	*	*	*	*	*	*	*	*	*	*	*	*	*	*v	*v	*	*	*	*	*	*	*	*	*	*	*	*	*	*
=11	=11	=11	=11	=11	=11	=11	=11	=11	=11	=11	=11	=11	=11	=11	=11	=11	=11	=11	=11	=11	=11	=11	=11	=11	=11	=11	=11	=11	=11	=11	=11	=11	=11	=11	=11	=11	=11	=11	=11	=11
*	*	*	*	*	*	*	*	*	*	*	*	*	*	*	*	*	*	*	*	*	*	*	*	*	*	*	*	*	*^	*	*	*	*	*	*	*	*	*	*	*
!	!	!	!	!	!	!	!	!	!	!	!	!	!	!	!	!	!	!	!	!	!	!	!	!	!	!	!	!	!	!	!	!LO:TX:t=P:problem:skreślona nuta	!	!	!	!	!	!	!	!	!
4A-\	.	4A-\	.	4A-\	.	.	4A-\	.	.	.	8c\	-lis	.	.	8.cc\	tol-	.	4A-/	.	4e-X/	.	4cc\	.	4.A-\	.	2.r	.	4.ee-/	2.a-X\	2.r	.	4.c\	.	4.cc/	[2.a-\	.	(4.e-/	.	4.ccc/	4aa-\	.
.	.	.	.	.	.	.	.	.	.	.	8r	.	.	.	.	.	.	.	.	.	.	.	.	.	.	.	.	.	.	.	.	.	.	.	.	.	.	.	.	.	.
.	.	.	.	.	.	.	.	.	.	.	.	.	.	.	16cc\	-lis	.	.	.	.	.	.	.	.	.	.	.	.	.	.	.	.	.	.	.	.	.	.	.	.	.
8A-\	.	8A-\	.	8A-\	.	.	8A-\	.	.	.	8c\	pec-	.	.	8cc\	pec-	.	8A-/	.	8en/	.	(8cc\	.	.	.	.	.	.	.	.	.	.	.	.	.	.	.	.	.	8gg\	.
4D-X\	.	4D-X\	.	4D-X\	.	.	4A-\	.	.	.	8f\L	-ca-	.	.	8dd-X\L	-ca-	.	8D-X/	.	(8f/L	.	8dd-X\L	.	4.D-X\	.	.	.	4.ff/	.	.	.	4.B-\	.	8dd/L	.	.	(8f/L)	>	8ddd-X/L	8ff\L	>
.	.	.	.	.	.	.	.	.	.	.	8e-\J	.	.	.	8cc\J	.	.	8r	.	8e-X/	.	8cc\	.	.	.	.	.	.	.	.	.	.	.	8cc/	.	.	8ee-/	.	8ccc/	8ee-\	.
8D-\	.	8D-\	.	8D-\	.	.	8A-\	.	.	.	8d-X\	-ta	.	.	8b-\	-ta	.	8f\	.	8d-X/J)	.	8b-\J)	.	.	.	.	.	.	.	.	.	.	.	8b-/J	.	.	8dd-X/J)	]]	8bb-/J	8dd-X\J	]]
*	*	*	*	*	*	*	*	*	*	*	*	*	*	*	*	*	*	*	*	*	*	*	*	*	*	*	*	*	*v	*v	*	*	*	*	*	*	*	*	*	*	*
=12	=12	=12	=12	=12	=12	=12	=12	=12	=12	=12	=12	=12	=12	=12	=12	=12	=12	=12	=12	=12	=12	=12	=12	=12	=12	=12	=12	=12	=12	=12	=12	=12	=12	=12	=12	=12	=12	=12	=12	=12
4E-\	.	4E-\	.	4.E-\	.	.	4.E-/	.	.	.	(4c\	mun-	.	.	4.a-X\	mun-	.	4e-\	.	4c/	.	4a-/	.	[4.E-\	.	2.r	.	[2.ee-/	4.a-X\	.	4.A-\	.	4.a-/]	(>4.a-\	.	(4cc/	.	(4.aa-/)	4cc\	.
8E-\	.	8E-\	.	.	.	.	.	.	.	.	8c-X\)	.	.	.	.	.	.	8e-\	.	8c-X/	.	8a-/	.	.	.	.	.	.	.	.	.	.	.	.	.	8cc-X/	.	.	8ee-\	>
!	!	!	!	!	!	!	!	!	!	!	!	!	!	!	!	!	!	!	!	!	!	!LO:TX:t=P:problem:skreślona nuta	!	!	!	!	!	!	!	!	!	!	!	!	!	!	!	!	!	!
4E-\	.	4E-\	.	4E-\	.	.	4E-/	.	.	.	4B-/	-di	.	.	4g\	-di	.	8e-\	.	(8B-/L	>	(4g/	>	4E-\]	.	.	.	.	4.b-\	>	4.G\	>]	8g/L	4.g\	>	(4.b-/)	.	4.gg/)	(4ee-\	.
.	.	.	.	.	.	.	.	.	.	.	.	.	.	.	.	.	.	8r	.	8e-/	.	.	.	.	.	.	.	.	.	.	.	.	8e-/	.	.	.	.	.	.	.
!	!	!	!	!	!	!	!	!	!	!	!	!	!	!	!LO:TX:a:i:t=Solo	!	!	!	!	!	!	!	!	!	!	!	!	!	!	!	!	!	!	!	!	!	!	!	!	!
8r	.	8r	.	8r	.	.	8r	.	.	.	8r	.	.	.	8r	.	.	8B-/	.	8d-X/J)	]	8b-/)	]]	8r	.	.	.	.	.	]]	.	.	8d-X/J	.	]]	.	.	.	8dd-X\)	.
*	*	*	*	*	*	*	*	*	*	*	*	*	*	*	*	*	*	*	*	*	*	*	*	*	*	*	*	*	*	*	*	*	*	*	*	*	*	*v	*v	*
=13	=13	=13	=13	=13	=13	=13	=13	=13	=13	=13	=13	=13	=13	=13	=13	=13	=13	=13	=13	=13	=13	=13	=13	=13	=13	=13	=13	=13	=13	=13	=13	=13	=13	=13	=13	=13	=13	=13	=13
*	*	*2\right	*	*	*	*	*	*	*	*	*	*	*	*	*	*	*	*	*	*	*	*	*	*	*	*	*	*	*	*	*	*	*	*	*	*	*	*	*
8A-|\	p	[2.A-\	p	2.r	.	.	8r	.	.	.	8r	.	.	.	4.a-\	Ex-	.	4A-|/	.	4c|/	.	4a-/	p	2.r	.	2.r	.	8ee-/]	8cc\	.	8A-\)	.	8c/)	8a-\	.	8a-/)	.	8aa-\ 8cc\	]
!	!	!	!	!	!	!	!LO:TX:a:i:t=Solo	!	!	!	!LO:TX:a:i:t=Solo	!	!	!	!	!	!	!	!	!	!	!	!	!	!	!	!	!	!	!	!	!	!	!	!	!	!	!	!
8r	.	.	.	.	.	.	8r	.	.	.	8r	.	.	.	.	.	.	.	.	.	p	.	.	.	.	.	.	8r	8ryy	.	8r	.	8r	8ryy	.	8r	.	8r	.
8A-|\	.	.	.	.	.	.	8c\	ex-	.	.	8e-\	ex-	.	.	.	.	.	8A-|/	.	8c/	.	8a-/	.	.	.	.	.	8r	8ryy	.	8r	.	8r	8ryy	.	8r	.	8r	.
8A-|\	.	.	.	.	.	.	4A-\	-au-	.	.	4e-\	-au-	.	.	4cc\	-au-	.	4A-/	.	4e-/	.	4cc\	.	.	.	.	.	4r	4ryy	.	4r	.	4r	4ryy	.	4r	.	4r	.
8r	.	.	.	.	.	.	.	.	.	.	.	.	.	.	.	.	.	.	.	.	.	.	.	.	.	.	.	.	.	.	.	.	.	.	.	.	.	.	.
8A-|\	.	.	.	.	.	.	8A-\	-di	.	.	8a-\	-di	.	.	8cc\	-di	.	8A-/	.	8a-/	.	8cc\	.	.	.	.	.	8r	8ryy	.	8r	.	8r	8ryy	.	8r	.	8r	.
*	*	*	*	*	*	*	*	*	*	*	*	*	*	*	*	*	*	*	*	*	*	*	*	*	*	*	*	*v	*v	*	*	*	*v	*v	*	*	*	*	*
=14	=14	=14	=14	=14	=14	=14	=14	=14	=14	=14	=14	=14	=14	=14	=14	=14	=14	=14	=14	=14	=14	=14	=14	=14	=14	=14	=14	=14	=14	=14	=14	=14	=14	=14	=14	=14	=14
*	*	*	*	*	*	*	*	*	*	*	*	*	*	*	*	*	*	*rep	*	*	*	*	*	*	*	*	*	*	*	*	*	*	*	*	*	*	*
8A-|\	.	2.A-\]	.	2.r	.	.	4.A-/	nos	.	.	(4g\	nos	.	.	(4ee-\	nos	.	4A-|/	.	4g/	.	4ee-\	.	2.r	.	2.r	.	2.r	.	2.r	.	2.r	.	2.r	.	2.r	.
8r	.	.	.	.	.	.	.	.	.	.	.	.	.	.	.	.	.	.	.	.	.	.	.	.	.	.	.	.	.	.	.	.	.	.	.	.	.
8A-|\	.	.	.	.	.	.	.	.	.	.	8f\)	.	.	.	8dd-X\)	.	.	8A-|/	.	8f/	.	8dd-X\	.	.	.	.	.	.	.	.	.	.	.	.	.	.	.
8A-|\	.	.	.	.	.	.	4A-/	Do-	.	.	4e-\	ex-	.	.	(4cc\	ex-	.	4A-/	.	4e-/	.	(4cc\	.	.	.	.	.	.	.	.	.	.	.	.	.	.	.
8r	.	.	.	.	.	.	.	.	.	.	.	.	.	.	.	.	.	.	.	.	.	.	.	.	.	.	.	.	.	.	.	.	.	.	.	.	.
!	!	!	!	!	!	!	!	!	!	!	!LO:TX:t=P:problem:brak początku łuku	!	!	!	!	!	!	!	!	!	!	!	!	!	!	!	!	!	!	!	!	!	!	!	!	!	!
8A-|\	.	.	.	.	.	.	8A-/	-mi-	.	.	(8dn\	.	.	.	8bn\)	.	.	8A-/	.	8dn/	.	8bn\)	.	.	.	.	.	.	.	.	.	.	.	.	.	.	.
*	*	*	*	*	*	*	*	*	*	*	*	*	*	*	*	*	*	*Xrep	*	*	*	*	*	*	*	*	*	*	*	*	*	*	*	*	*	*	*
!!LO:PB:g=original
=15	=15	=15	=15	=15	=15	=15	=15	=15	=15	=15	=15	=15	=15	=15	=15	=15	=15	=15	=15	=15	=15	=15	=15	=15	=15	=15	=15	=15	=15	=15	=15	=15	=15	=15	=15	=15	=15
*	*	*	*	*	*	*	*	*	*	*	*	*	*	*	*	*	*	*	*	*	*	*	*	*	*	*^	*	*	*	*	*	*	*	*	*	*	*
*	*	*	*	*	*	*	*	*	*	*	*	*	*	*	*	*	*	*	*	*tremolo	*	*	*	*	*	*	*	*	*	*	*	*	*	*	*	*	*	*
!	!	!	!	!	!	!	!	!	!	!	!	!	!	!	!	!	!	!	!	!	!	!	!	!	!	!	!	!LO:DY:rj:t=pp.	!	!	!	!	!	!	!	!LO:DY:rj	!	!
8A-\	.	4A-\	.	2.r	.	.	4A-\	-ne	.	.	4.e-\)	-au-	.	.	4.cc\	-au-	.	4A-/	.	32e-/LLL	.	4cc\	.	2.ryy	.	[2.cc/	2.r	pp	2.r	.	2.r	.	2.r	.	(4.e-/	p	2.r	.
.	.	.	.	.	.	.	.	.	.	.	.	.	.	.	.	.	.	.	.	32e-/	.	.	.	.	.	.	.	.	.	.	.	.	.	.	.	.	.	.
.	.	.	.	.	.	.	.	.	.	.	.	.	.	.	.	.	.	.	.	32e-/	.	.	.	.	.	.	.	.	.	.	.	.	.	.	.	.	.	.
.	.	.	.	.	.	.	.	.	.	.	.	.	.	.	.	.	.	.	.	32e-/	.	.	.	.	.	.	.	.	.	.	.	.	.	.	.	.	.	.
8r	.	.	.	.	.	.	.	.	.	.	.	.	.	.	.	.	.	.	.	32e-/	.	.	<	.	.	.	.	.	.	.	.	.	.	.	.	.	.	.
!	!	!	!	!	!	!	!	!	!	!	!	!	!	!	!	!	!	!	!	!	!	!	!	!	!	!	!	!	!	!	!	!	!	!	!	!LO:HP:a	!	!
.	.	.	.	.	.	.	.	.	.	.	.	.	.	.	.	.	.	.	.	32e-/	.	.	.	.	.	.	.	.	.	.	.	.	.	.	.	<	.	.
.	.	.	.	.	.	.	.	.	.	.	.	.	.	.	.	.	.	.	.	32e-/	.	.	.	.	.	.	.	.	.	.	.	.	.	.	.	.	.	.
.	.	.	.	.	.	.	.	.	.	.	.	.	.	.	.	.	.	.	.	32e-/	.	.	.	.	.	.	.	.	.	.	.	.	.	.	.	.	.	.
!	!	!	!	!	!	!	!	!	!	!	!	!	!	!	!	!	!	!	!	!LO:TX:b:t=cres-cendo.:ext2=cd:problem:dynamics with extension lines	!LO:HP:t=cres-cendo.	!	!	!	!	!	!	!	!	!	!	!	!	!	!	!	!	!
8r	.	8A-\	.	.	.	.	8A-\	ex-	.	.	.	.	.	.	.	.	.	8A-/	.	32e-/	<	8cc\	.	.	.	.	.	.	.	.	.	.	.	.	.	.	.	.
.	.	.	.	.	.	.	.	.	.	.	.	.	.	.	.	.	.	.	.	32e-/	.	.	.	.	.	.	.	.	.	.	.	.	.	.	.	.	.	.
.	.	.	.	.	.	.	.	.	.	.	.	.	.	.	.	.	.	.	.	32e-/	.	.	.	.	.	.	.	.	.	.	.	.	.	.	.	.	.	.
.	.	.	.	.	.	.	.	.	.	.	.	.	.	.	.	.	.	.	.	32e-/JJJ	.	.	.	.	.	.	.	.	.	.	.	.	.	.	.	.	.	.
!	!	!	!	!	!	!	!	!	!	!	!LO:N:vis=4	!	!	!	!	!	!	!	!	!	!	!	!	!	!	!	!	!	!	!	!	!	!	!	!	!	!	!
4r	.	4A-\	.	.	.	.	4A-\	-au-	.	.	[4.enX\	-di	.	.	4cc\	-di	.	4A-/	.	32en/LLL	.	4cc\	.	.	.	.	.	<	.	.	.	.	.	.	[4.en/	.	.	.
.	.	.	.	.	.	.	.	.	.	.	.	.	.	.	.	.	.	.	.	32e/	.	.	.	.	.	.	.	.	.	.	.	.	.	.	.	.	.	.
.	.	.	.	.	.	.	.	.	.	.	.	.	.	.	.	.	.	.	.	32e/	.	.	.	.	.	.	.	.	.	.	.	.	.	.	.	.	.	.
.	.	.	.	.	.	.	.	.	.	.	.	.	.	.	.	.	.	.	.	32e/	.	.	.	.	.	.	.	.	.	.	.	.	.	.	.	.	.	.
.	.	.	.	.	.	.	.	.	.	.	.	.	.	.	.	.	.	.	.	32e/	.	.	.	.	.	.	.	.	.	.	.	.	.	.	.	.	.	.
.	.	.	.	.	.	.	.	.	.	.	.	.	.	.	.	.	.	.	.	32e/	.	.	.	.	.	.	.	.	.	.	.	.	.	.	.	.	.	.
.	.	.	.	.	.	.	.	.	.	.	.	.	.	.	.	.	.	.	.	32e/	.	.	.	.	.	.	.	.	.	.	.	.	.	.	.	.	.	.
.	.	.	.	.	.	.	.	.	.	.	.	.	.	.	.	.	.	.	.	32e/	.	.	.	.	.	.	.	.	.	.	.	.	.	.	.	.	.	.
8r	.	8A-\	.	.	.	.	8A-\	-di	.	.	.	.	.	.	8cc\	nos	.	8A-/	.	32e/	.	8cc\	.	.	.	.	.	.	.	.	.	.	.	.	.	.	.	.
.	.	.	.	.	.	.	.	.	.	.	.	.	.	.	.	.	.	.	.	32e/	.	.	.	.	.	.	.	.	.	.	.	.	.	.	.	.	.	.
.	.	.	.	.	.	.	.	.	.	.	.	.	.	.	.	.	.	.	.	32e/	.	.	.	.	.	.	.	.	.	.	.	.	.	.	.	.	.	.
.	.	.	.	.	.	.	.	.	.	.	.	.	.	.	.	.	.	.	.	32e/JJJ	.	.	.	.	.	.	.	.	.	.	.	.	.	.	.	.	.	.
*	*	*	*	*	*	*	*	*	*	*	*	*	*	*	*	*	*	*	*	*	*	*	*	*	*	*v	*v	*	*	*	*	*	*	*	*	*	*	*
=16	=16	=16	=16	=16	=16	=16	=16	=16	=16	=16	=16	=16	=16	=16	=16	=16	=16	=16	=16	=16	=16	=16	=16	=16	=16	=16	=16	=16	=16	=16	=16	=16	=16	=16	=16	=16	=16
2.r	.	4An\	.	2.r	.	.	4An\	nos	.	.	4.enX\]	.	.	.	4.cc\	Do-	.	4An/	.	32en/LLL	.	4cc\	.	2.ryy	.	2.cc/]	[[	2.r	.	2.r	.	2.r	.	4.e/]	.	2.r	.
.	.	.	.	.	.	.	.	.	.	.	.	.	.	.	.	.	.	.	.	32e/	.	.	.	.	.	.	.	.	.	.	.	.	.	.	.	.	.
.	.	.	.	.	.	.	.	.	.	.	.	.	.	.	.	.	.	.	.	32e/	.	.	.	.	.	.	.	.	.	.	.	.	.	.	.	.	.
.	.	.	.	.	.	.	.	.	.	.	.	.	.	.	.	.	.	.	.	32e/	.	.	.	.	.	.	.	.	.	.	.	.	.	.	.	.	.
.	.	.	.	.	.	.	.	.	.	.	.	.	.	.	.	.	.	.	.	32e/	.	.	.	.	.	.	.	.	.	.	.	.	.	.	.	.	.
.	.	.	.	.	.	.	.	.	.	.	.	.	.	.	.	.	.	.	.	32e/	.	.	.	.	.	.	.	.	.	.	.	.	.	.	.	.	.
.	.	.	.	.	.	.	.	.	.	.	.	.	.	.	.	.	.	.	.	32e/	.	.	.	.	.	.	.	.	.	.	.	.	.	.	.	.	.
.	.	.	.	.	.	.	.	.	.	.	.	.	.	.	.	.	.	.	.	32e/	.	.	.	.	.	.	.	.	.	.	.	.	.	.	.	.	.
.	.	8A\	.	.	.	.	8A\	ex-	.	.	.	.	.	.	.	.	.	8A/	.	32e/	.	8cc\	.	.	.	.	.	.	.	.	.	.	.	.	.	.	.
.	.	.	.	.	.	.	.	.	.	.	.	.	.	.	.	.	.	.	.	32e/	.	.	.	.	.	.	.	.	.	.	.	.	.	.	.	.	.
.	.	.	.	.	.	.	.	.	.	.	.	.	.	.	.	.	.	.	.	32e/	.	.	.	.	.	.	.	.	.	.	.	.	.	.	.	.	.
.	.	.	.	.	.	.	.	.	.	.	.	.	.	.	.	.	.	.	.	32e/JJJ	.	.	.	.	.	.	.	.	.	.	.	.	.	.	.	.	.
!	!	!	!	!	!	!	!	!	!	!	!	!	!	!	!	!	!	!	!	!	!	!	!	!	!	!	!	!	!	!	!	!	!	!LO:N:vis=4	!	!	!
.	.	4A\	.	.	.	.	4A\	-au-	.	.	4.fn\	nos	.	.	4cc\	-mi-	.	4A/	.	32f/LLL	[	4cc\	.	.	.	.	.	.	.	.	.	.	.	4.fn/)	.	.	.
.	.	.	.	.	.	.	.	.	.	.	.	.	.	.	.	.	.	.	.	32f/	.	.	.	.	.	.	.	.	.	.	.	.	.	.	.	.	.
.	.	.	.	.	.	.	.	.	.	.	.	.	.	.	.	.	.	.	.	32f/	.	.	.	.	.	.	.	.	.	.	.	.	.	.	.	.	.
.	.	.	.	.	.	.	.	.	.	.	.	.	.	.	.	.	.	.	.	32f/	.	.	.	.	.	.	.	.	.	.	.	.	.	.	.	.	.
.	.	.	.	.	.	.	.	.	.	.	.	.	.	.	.	.	.	.	.	32f/	.	.	.	.	.	.	.	.	.	.	.	.	.	.	.	.	.
.	.	.	.	.	.	.	.	.	.	.	.	.	.	.	.	.	.	.	.	32f/	.	.	.	.	.	.	.	.	.	.	.	.	.	.	.	.	.
.	.	.	.	.	.	.	.	.	.	.	.	.	.	.	.	.	.	.	.	32f/	.	.	.	.	.	.	.	.	.	.	.	.	.	.	.	.	.
.	.	.	.	.	.	.	.	.	.	.	.	.	.	.	.	.	.	.	.	32f/	.	.	.	.	.	.	.	.	.	.	.	.	.	.	.	.	.
!	!LO:DY:t=f.	!	!	!	!	!	!	!	!	!	!	!	!	!	!	!	!	!	!	!	!	!	!	!	!	!	!	!	!	!	!	!	!	!	!	!	!
.	f	8A\	.	.	.	.	8A\	-di.	.	.	.	.	.	.	8cc\	-ne	.	8A/	.	32f/	.	8cc\	[[	.	.	.	.	.	.	.	.	.	.	.	[	.	.
.	.	.	.	.	.	.	.	.	.	.	.	.	.	.	.	.	.	.	.	32f/	.	.	.	.	.	.	.	.	.	.	.	.	.	.	.	.	.
.	.	.	.	.	.	.	.	.	.	.	.	.	.	.	.	.	.	.	.	32f/	.	.	.	.	.	.	.	.	.	.	.	.	.	.	.	.	.
.	.	.	.	.	.	.	.	.	.	.	.	.	.	.	.	.	.	.	.	32f/JJJ	.	.	.	.	.	.	.	.	.	.	.	.	.	.	.	.	.
*	*	*	*	*	*	*	*	*	*	*	*	*	*	*	*	*	*	*	*	*Xtremolo	*	*	*	*	*	*	*	*	*	*	*	*	*	*	*	*	*
=17	=17	=17	=17	=17	=17	=17	=17	=17	=17	=17	=17	=17	=17	=17	=17	=17	=17	=17	=17	=17	=17	=17	=17	=17	=17	=17	=17	=17	=17	=17	=17	=17	=17	=17	=17	=17	=17
*	*	*	*	*	*	*	*	*	*	*	*	*	*	*	*	*	*	*	*	*	*	*	*	*	*	*^	*	*^	*	*	*	*^	*	*	*	*^	*
*	*	*	*	*	*	*	*	*	*	*	*	*	*	*	*	*	*	*	*	*	*	*	*	*2\right	*	*	*	*	*	*	*	*2\right	*	*	*	*	*	*	*	*	*
!	!	!	!	!	!	!	!	!	!	!	!	!	!	!	!	!	!	!	!	!	!	!	!	!	!	!	!	!	!	!	!	!	!	!LO:TX:a:t=2do	!	!	!	!	!	!	!
!	!	!	!	!	!	!LO:DY:rj	!	!	!	!	!	!	!	!LO:DY:rj	!LO:TX:a:i:t=tutti	!	!LO:DY:b:rj	!	!	!	!LO:DY:rj	!	!	!	!LO:DY:rj:t=f.	!	!	!LO:DY:rj	!	!	!	!	!	!LO:TX:b:t=1	!	!LO:DY:rj	!	!LO:DY:rj	!	!	!
4D\	.	4An\ 4D\	.	4.D\	A-	f	4An\	A-	.	.	4f#X\	A-	.	f	4cc\	A-	f	4F#X/	.	4f#X/	f	4cc\	f	2.D\	f	[2.cc/	[2.c\	f	[2.cc/	[>2.cc\	f	[2.F#X\	f	2.f#X/	[>2.cc\	f	([2.f#X/	f	[2.ccc/	[2.ff#X\	f
8D\	.	8A\ 8D\	.	.	.	.	8A\	-gnus	.	.	8f#\	-gnus	.	.	8cc\	-gnus	.	8F#/	.	8f#/	.	8cc\	.	.	.	.	.	.	.	.	.	.	.	.	.	.	.	.	.	.	.
!LO:TX:b:t=cres-cen-do.:ext2=cd:problem:dynamics with extension lines	!LO:HP:t=cres-cen-do.	!	!	!	!	!	!LO:N:vis=4	!	!	!	!	!	!	!	!	!	!	!	!	!	!	!	!	!LO:TX:b:t=cres-cen-do.:ext2=cd:problem:dynamics with extension lines	!LO:HP:t=cres-cen-do.	!	!	!	!	!LO:TX:b:t=cres-cen-do.:ext2=cd:problem:dynamics with extension lines	!LO:HP:t=cres-cen-do.	!LO:TX:b:t=cres-cen-do:ext2=cd:problem:dynamics with extension lines	!LO:HP:t=cres-cen-do	!	!LO:TX:b:t=cres-cen-do.:ext2=ud:problem:dynamics with extension lines	!LO:HP:t=cres-cen-do.	!	!	!	!LO:TX:b:t=cresc_cen_:ext=u:ext=u:problem:dynamics with extension lines	!LO:HP:t=cresc_cen_
4D\	<	4D\	.	4.D\	-gnus	.	[4.c\	De-	.	.	4f#\	De-	.	.	[4.cc\	De-	.	4F#/	.	4f#/	.	4cc\	.	.	<	.	.	.	.	.	<	.	<	.	.	<	.	.	.	.	<
!	!	!	!	!	!	!	!	!	!	!	!	!	!	!	!	!	!	!	!	!	!	!LO:TX:b:t=cres-cen-do.:ext2=cd:problem:dynamics with extension lines	!LO:HP:t=cres-cen-do.	!	!	!	!LO:TX:b:t=cres-cen-do:ext2=cd:problem:dynamics with extension lines	!LO:HP:t=cres-cen-do	!	!	!	!	!	!	!	!	!	!	!	!	!
8D\	.	8D\	.	.	.	.	.	.	.	.	8f#\	-i	.	.	.	.	.	8F#/	.	8f#/	.	8cc\	<	.	.	.	.	<	.	.	.	.	.	.	.	.	.	.	.	.	.
=18	=18	=18	=18	=18	=18	=18	=18	=18	=18	=18	=18	=18	=18	=18	=18	=18	=18	=18	=18	=18	=18	=18	=18	=18	=18	=18	=18	=18	=18	=18	=18	=18	=18	=18	=18	=18	=18	=18	=18	=18	=18
*	*	*	*	*	*	*	*	*	*	*	*	*	*	*	*	*	*	*	*	*	*	*rep	*	*	*	*	*	*	*	*	*	*	*	*	*	*	*	*	*	*	*
4E-\	.	4E-\	.	4.E-\	De-	.	4c\]	.	.	.	4f#X\	A-	.	.	4cc\]	.	.	4F#X/	.	4f#X/	.	4cc\	.	2.E-\	.	2.cc/_	2.c\_	.	2.cc/_	2.cc\_>	.	4.F#\]	.	4.f#X/	2.cc\_>	.	4.f#/]	.	2.ccc/_	4.ff#\]	.
8E-\	.	8E-\	.	.	.	.	8c\	-i	.	.	8f#\	-gnus	.	.	8cc\	-i	.	8F#/	.	8f#/	.	8cc\	.	.	.	.	.	.	.	.	.	.	.	.	.	.	.	.	.	.	.
4E-\	.	4E-\	.	4E-\	-i	.	[4.c\	Ag-	.	.	4g\	De-	.	.	[4.cc\	A-	.	4G/	.	4g/	.	4cc\	.	.	.	.	.	.	.	.	.	[4.G\	.	[<4.g/	.	.	[4.g/	.	.	[4.gg\	.
8E-\	.	8E-\	.	8E-\	qui	.	.	.	.	.	8g\	-i	.	.	.	.	.	8G/	.	8g/	.	8cc\	.	.	.	.	.	.	.	.	.	.	.	.	.	.	.	.	.	.	.
*	*	*	*	*	*	*	*	*	*	*	*	*	*	*	*	*	*	*	*	*	*	*Xrep	*	*	*	*	*	*	*	*	*	*	*	*	*	*	*	*	*	*	*
=19	=19	=19	=19	=19	=19	=19	=19	=19	=19	=19	=19	=19	=19	=19	=19	=19	=19	=19	=19	=19	=19	=19	=19	=19	=19	=19	=19	=19	=19	=19	=19	=19	=19	=19	=19	=19	=19	=19	=19	=19	=19
*	*	*rep	*	*	*	*	*	*	*	*	*	*	*	*	*	*	*	*	*	*	*	*rep	*	*	*	*	*	*	*	*	*	*	*	*	*	*	*	*	*	*	*
!	!	!	!	!	!	!	!	!	!	!	!	!	!	!	!	!	!	!	!	!	!	!	!	!	!	!	!	!	!	!	!	!	!	!LO:TX:t=P:problem:brak początku ligatury	!	!	!	!	!	!	!
4E-\	.	4E-\	.	4.E-\	tol-	.	4c\]	.	.	.	4g\	A-	.	.	4cc\]	.	.	4G/	.	4g/	.	4cc\	.	2.E-\	.	2.cc/_	2.c\_	.	2.cc/_	2.cc\_>	.	4.G\]	.	4.g/]	2.cc\_	.	4.g/]	.	2.ccc/_	4.gg\]	.
8E-\	.	8E-\	.	.	.	.	8c\	-nus	.	.	8g\	-gnus	.	.	8cc\	-gnus	.	8G/	.	8g/	.	8cc\	.	.	.	.	.	.	.	.	.	.	.	.	.	.	.	.	.	.	.
4E-\	.	4E-\	.	4E-\	-lis	.	[4.c\	A-	.	.	4a-X\	De-	.	.	[4.cc\	A-	.	4A-X/	.	4a-X/	.	4cc\	.	.	[	.	.	.	.	.	.	[4.A-X\	.	4.a-X/	.	[	4.a-X/)	.	.	4.aa-X\	.
8E-\	[[	8E-\	.	8E-\	pec-	.	.	.	.	.	8a-\	-i	.	.	.	.	.	8A-/	.	8a-/	.	8cc\	.	.	.	.	.	.	.	.	[[	.	[[	.	.	.	.	.	.	.	.
*	*	*Xrep	*	*	*	*	*	*	*	*	*	*	*	*	*	*	*	*	*	*	*	*Xrep	*	*	*	*	*	*	*	*	*	*	*	*	*	*	*	*	*	*	*
!!LO:PB:g=original
=20	=20	=20	=20	=20	=20	=20	=20	=20	=20	=20	=20	=20	=20	=20	=20	=20	=20	=20	=20	=20	=20	=20	=20	=20	=20	=20	=20	=20	=20	=20	=20	=20	=20	=20	=20	=20	=20	=20	=20	=20	=20
!	!	!	!	!	!	!	!LO:TX:t=P:problem:brak zakończenia ligatury	!	!	!	!	!	!	!	!	!	!	!	!LO:DY:rj	!	!	!	!	!	!	!	!	!	!	!	!	!	!	!	!	!LO:DY:rj	!	!LO:DY:rj	!	!	!
4En\	.	4En\	.	4En\	-ca-	.	4c\]	.	.	.	4a-\	A-	.	.	4cc\]	.	.	(4A-X/	sf	(4a-X/	sf	4cc\	[	2.En\	.	4cc/]	4c\]	[	4cc/]	4cc\]	.	4A-\]	sf	(<4a-/	4.cc\]	sf	(4a-/	sf	4.ccc/]	(4aa-X\	[ sf
8E\	.	8E\	.	8E,\	-ta	.	8G/	-gnus	.	.	8g\	-gnus	.	.	8cc\	-gnus	.	8G/)	.	8g/)	.	8cc\	.	.	.	8r	8ryy	.	8r	8ryy	.	8G\	.	8g/)	.	.	8g/)	.	.	8gg\)	.
!	!	!	!	!	!	!	!	!	!	!	!	!	!	!	!	!	!	!	!	!LO:TX:t=P:problem:skreślona nuta	!	!	!	!	!	!	!	!	!	!	!	!	!	!	!	!	!	!LO:DY:rj	!	!	!
4E\	.	4E\	.	4E\	mun-	.	4G/	De-	.	.	(8b-\L	De-	.	.	8dd-X\L	De-	.	4G/	.	(8b-/L	sf	(8dd-X\L	sf	.	.	(4.g^</	4.g\	.	4r	4ryy	.	4G\	sf	(8dd-X/L	8b-\L	sf	(8dd-X/L	sf	(8ddd-X/L	8bb-\L	sf
.	.	.	.	.	.	.	.	.	.	.	8a-\J)	.	.	.	8cc\J	.	.	.	.	8a-/J	.	8cc\	.	.	.	.	.	.	.	.	.	.	.	8cc/)	8a-\	.	8cc/)	.	8ccc/)	8aa-\	.
!	!	!	!	!	!	!	!	!	!	!	!	!	!	!	!	!	!	!	!	!	!	!	!	!	!	!	!	!	!	!	!LO:DY:t=pp.	!	!	!	!	!	!	!	!	!	!
8E\	.	8E\	.	8E\	-di	.	8c\	-i	.	.	8g\	-i.	.	.	8b-\	-i	.	8G/	.	8g/)	.	8b-\J)	.	.	.	.	.	.	8r	8ryy	pp	8c\	.	8b-/J	8g\J	.	8b-/J	.	8bb-/J	8gg\J	.
*	*	*	*	*	*	*	*	*	*	*	*	*	*	*	*	*	*	*	*	*	*	*	*	*	*	*	*	*	*v	*v	*	*	*	*	*	*	*	*	*v	*v	*
=21	=21	=21	=21	=21	=21	=21	=21	=21	=21	=21	=21	=21	=21	=21	=21	=21	=21	=21	=21	=21	=21	=21	=21	=21	=21	=21	=21	=21	=21	=21	=21	=21	=21	=21	=21	=21	=21	=21	=21
!	!	!	!	!	!	!	!	!	!	!	!	!	!	!	!	!	!	!	!	!	!LO:DY:rj	!	!	!	!	!	!	!	!	!	!	!	!	!	!	!	!LO:DY:t=p.	!	!
4F\	.	4F\	.	4F\	mi-	.	4.f\	mi-	[[mi-se-	p	[4.f\	mi-	.	p	4a-\	mi-	.	4F|/	p	4f/	p	4a-/	p	4F\	.	4c/)	4c\	.	4ff\ 4f|\	.	(4.f\	p	8a-/	8a-\	.	(4.a-X/	p	8aa-\ 8ff\	.
.	p	.	p	.	.	p	.	.	.	.	.	.	.	.	.	.	.	.	.	.	.	.	.	.	.	.	.	.	.	.	.	.	8r	8ryy	.	.	.	8r	.
8F\	.	8F\	.	8F\	-se-	.	.	.	.	.	.	.	.	.	8a-\	-se-	p	8F|/	.	8f|/	.	8a-/	.	8r	.	8r	8ryy	.	8ff\ 8f|\	.	.	.	8r	8ryy	.	.	.	8r	.
!	!	!	!	!	!	!	!LO:TX:t=P:problem:skreślona nuta	!	!	!	!	!	!	!	!LO:TX:i:t=[[Solo]]	!	!	!	!	!	!	!	!	!	!	!	!	!	!	!	!	!	!	!	!	!	!	!	!
4F\	.	4F\	.	4F\	-re-	.	4.e-\	-se-	-re-re	.	4f\]	.	.	.	4cc\	-re-	.	4F|/	.	4e-|/	.	4g/	.	4r	.	4r	4ryy	.	4ff\ 4f|\	.	4.e-\	.	4r	4ryy	.	4.cc\	.	4r	.
8F\	.	8F\	.	8F\	-re	.	.	.	.	.	8f\	-se-	.	.	8cc\	-re	.	8F|/	.	8e-|/	.	8g/	.	8r	.	8r	8ryy	.	8ff\ 8f|\	.	.	.	8r	8ryy	.	.	.	8r	.
*	*	*	*	*	*	*	*	*	*	*	*	*	*	*	*	*	*	*	*	*	*	*	*	*	*	*v	*v	*	*	*	*	*	*v	*v	*	*	*	*	*
=22	=22	=22	=22	=22	=22	=22	=22	=22	=22	=22	=22	=22	=22	=22	=22	=22	=22	=22	=22	=22	=22	=22	=22	=22	=22	=22	=22	=22	=22	=22	=22	=22	=22	=22	=22	=22	=22
*	*	*	*	*	*	*	*	*	*	*	*	*	*	*	*	*	*	*rep	*	*	*	*	*	*	*	*	*	*rep	*	*	*	*	*	*	*	*	*
4F\	.	4F\	.	4F\	mi-	.	(4d-X\	-re-	mi-	.	[4.f\	-re-	.	.	4ff\	mi-	.	4F|/	.	4d-X|/	.	4f|/	.	2.r	.	2.r	.	4ff\ 4f|\	.	4d-X\	.	2.r	.	4ff\	.	2.r	.
8F\	.	8F\	.	8F\	-se-	.	8c\)	.	-se-	.	.	.	.	.	8ee-\	-se-	.	8F|/	.	8c|/	.	8f|/	.	.	.	.	.	8ff\ 8f|\	.	8c\	.	.	.	8ee-\	.	.	.
4F\	.	4F\	.	4F\	-re-	.	(4B-\	-re	-re-	.	4f\]	.	.	.	4dd-X\	-re-	.	4F|/	.	4B-|/	.	4f/	.	.	.	.	.	4ff\ 4f|\	.	4B-\	.	.	.	4dd-X\	.	.	.
!	!	!	!	!LO:TX:t=P:problem:skreślona nuta	!	!	!LO:TX:t=P:problem:skreślona nuta	!	!	!	!	!	!	!	!	!	!	!	!	!	!	!	!	!	!	!	!	!	!	!	!	!	!	!	!	!	!
8F\	.	8F\	.	8A-\	-re	.	8c\)	.	-re]]	.	8f\	-re	.	.	8cc\	-re	.	8F|/	.	8A-|/	.	8f/	.	.	.	.	.	8ff\ 8f|\	p	8A-\)	.	.	.	8cc\)	.	.	.
*	*	*	*	*	*	*	*	*	*	*	*	*	*	*	*	*	*	*Xrep	*	*	*	*	*	*	*	*	*	*Xrep	*	*	*	*	*	*	*	*	*
=23	=23	=23	=23	=23	=23	=23	=23	=23	=23	=23	=23	=23	=23	=23	=23	=23	=23	=23	=23	=23	=23	=23	=23	=23	=23	=23	=23	=23	=23	=23	=23	=23	=23	=23	=23	=23	=23
*	*	*	*	*	*	*	*	*	*	*	*	*	*	*	*	*	*	*	*	*	*	*	*	*	*	*	*	*^	*	*	*	*^	*	*	*	*	*
*rep	*	*rep	*	*2\right	*	*	*2\right	*	*	*	*2\right	*	*	*	*2\right	*	*	*2\right	*	*	*	*2\right	*	*	*	*	*	*	*	*	*	*	*	*	*	*2\right	*	*	*
4F\	.	4F\	.	[2.A-\	no	.	[2.dn\	no-	.	.	[2.f\	no-	.	.	(2.cc\	no-	.	[2.d\	.	[2.A-/	.	2.cc\	.	2.r	.	2.r	.	4ff/	[2.f\	.	[2.A-\	.	[<2.d/	2.r	.	(2.cc\	.	2.r	.
8F\	.	8F\	.	.	.	.	.	.	.	.	.	.	.	.	.	.	.	.	.	.	.	.	.	.	.	.	.	8r	.	.	.	.	.	.	.	.	.	.	.
4F\	.	4F\	.	.	.	.	.	.	.	.	.	.	.	.	.	.	.	.	.	.	.	.	.	.	.	.	.	4r	.	.	.	.	.	.	.	.	.	.	.
8F\	.	8F\	.	.	.	.	.	.	.	.	.	.	.	.	.	.	.	.	.	.	.	.	.	.	.	.	.	8r	.	.	.	.	.	.	.	.	.	.	.
*Xrep	*	*Xrep	*	*	*	*	*	*	*	*	*	*	*	*	*	*	*	*	*	*	*	*	*	*	*	*	*	*	*	*	*	*	*	*	*	*	*	*	*
*	*	*	*	*	*	*	*	*	*	*	*	*	*	*	*	*	*	*	*	*	*	*	*	*	*	*	*	*v	*v	*	*	*	*	*	*	*	*	*	*
=24	=24	=24	=24	=24	=24	=24	=24	=24	=24	=24	=24	=24	=24	=24	=24	=24	=24	=24	=24	=24	=24	=24	=24	=24	=24	=24	=24	=24	=24	=24	=24	=24	=24	=24	=24	=24	=24	=24
*rep	*	*rep	*	*	*	*	*	*	*	*	*	*	*	*	*	*	*	*	*	*	*	*	*	*	*	*	*	*	*	*	*	*	*	*	*	*	*	*
4F\	.	4F\	.	2.A-\_	.	.	2.d\_	.	.	.	2.f\_	.	.	.	(2.bn\)	.	.	2.d\_	.	2.A-/_	.	2.bn\	.	2.r	.	2.r	.	2.f\_<	.	2.A-\_	.	2.d/_<	2.r	.	4bn\)	.	2.r	.
8F\	.	8F\	.	.	.	.	.	.	.	.	.	.	.	.	.	.	.	.	.	.	.	.	.	.	.	.	.	.	.	.	.	.	.	.	8r	.	.	.
4F\	.	4F\	.	.	.	.	.	.	.	.	.	.	.	.	.	.	.	.	.	.	.	.	.	.	.	.	.	.	.	.	.	.	.	.	4r	.	.	.
8F\	.	8F\	.	.	.	.	.	.	.	.	.	.	.	.	.	.	.	.	.	.	.	.	.	.	.	.	.	.	.	.	.	.	.	.	8r	.	.	.
*Xrep	*	*Xrep	*	*	*	*	*	*	*	*	*	*	*	*	*	*	*	*	*	*	*	*	*	*	*	*	*	*	*	*	*	*	*	*	*	*	*	*
=25	=25	=25	=25	=25	=25	=25	=25	=25	=25	=25	=25	=25	=25	=25	=25	=25	=25	=25	=25	=25	=25	=25	=25	=25	=25	=25	=25	=25	=25	=25	=25	=25	=25	=25	=25	=25	=25	=25
*rep	*	*rep	*	*	*	*	*	*	*	*	*	*	*	*	*	*	*	*	*	*	*	*	*	*	*	*	*	*	*	*	*	*	*	*	*	*	*	*
!	!	!	!	!	!	!	!	!	!	!	!LO:TX:t=P:problem:skreślona ligatury	!	!	!	!	!	!	!	!	!	!	!	!	!	!	!	!	!	!	!	!	!	!	!	!	!	!	!
4F\	.	4F\	.	2.A-\]	.	.	(2.d\]	.	.	.	2.f\]	.	.	.	[2.b-X\)	.	.	(2.d\]	.	2.A-/_	.	2.b-X\	.	2.r	.	2.r	.	2.f\_<	.	2.A-\_	.	2.d/]	2.r	.	2.r	.	2.r	.
8F\	.	8F\	.	.	.	.	.	.	.	.	.	.	.	.	.	.	.	.	.	.	.	.	.	.	.	.	.	.	.	.	.	.	.	.	.	.	.	.
4F\	.	4F\	.	.	.	.	.	.	.	.	.	.	.	.	.	.	.	.	.	.	.	.	.	.	.	.	.	.	.	.	.	.	.	.	.	.	.	.
8F\	.	8F\	.	.	.	.	.	.	.	.	.	.	.	.	.	.	.	.	.	.	.	.	.	.	.	.	.	.	.	.	.	.	.	.	.	.	.	.
*Xrep	*	*Xrep	*	*	*	*	*	*	*	*	*	*	*	*	*	*	*	*	*	*	*	*	*	*	*	*	*	*	*	*	*	*	*	*	*	*	*	*
*	*	*	*	*	*	*	*	*	*	*	*	*	*	*	*	*	*	*	*	*	*	*	*	*	*	*	*	*	*	*	*	*v	*v	*	*	*	*	*
=26	=26	=26	=26	=26	=26	=26	=26	=26	=26	=26	=26	=26	=26	=26	=26	=26	=26	=26	=26	=26	=26	=26	=26	=26	=26	=26	=26	=26	=26	=26	=26	=26	=26	=26	=26	=26	=26
*rep	*	*rep	*	*	*	*	*	*	*	*	*	*	*	*	*	*	*	*	*	*	*	*	*	*	*	*	*	*	*	*	*	*	*	*	*	*	*
!	!	!	!	!	!	!	!	!	!	!	!	!	!	!	!LO:TX:t=P:problem:brak początku ligatury	!	!	!	!	!LO:N:vis=2	!	!	!	!	!	!	!	!	!	!	!	!	!	!	!	!	!
4F\	.	4F\	.	2.A-\	.	.	2.d-X\)	-bis	.	.	2.f\	-bis	.	.	2.b-\_	.	.	2.d-X\)	.	2.A-/]	.	2.b-\	.	2.r	.	2.r	.	2.f\]	.	2.A-\]	.	2.d-X/	.	2.r	.	2.r	.
8F\	.	8F\	.	.	.	.	.	.	.	.	.	.	.	.	.	.	.	.	.	.	.	.	.	.	.	.	.	.	.	.	.	.	.	.	.	.	.
4F\	.	4F\	.	.	.	.	.	.	.	.	.	.	.	.	.	.	.	.	.	.	.	.	.	.	.	.	.	.	.	.	.	.	.	.	.	.	.
8F\	.	8F\	.	.	.	.	.	.	.	.	.	.	.	.	.	.	.	.	.	.	.	.	.	.	.	.	.	.	.	.	.	.	.	.	.	.	.
*Xrep	*	*Xrep	*	*	*	*	*	*	*	*	*	*	*	*	*	*	*	*	*	*	*	*	*	*	*	*	*	*	*	*	*	*	*	*	*	*	*
!!LO:PB:g=original
=27	=27	=27	=27	=27	=27	=27	=27	=27	=27	=27	=27	=27	=27	=27	=27	=27	=27	=27	=27	=27	=27	=27	=27	=27	=27	=27	=27	=27	=27	=27	=27	=27	=27	=27	=27	=27	=27
!	!	!	!	!	!	!	!LO:TX:t=P:problem:accentlike diminuendo	!	!	!	!	!	!	!	!	!	!	!	!	!	!	!	!LO:DY:t=ppp.	!	!	!	!	!	!	!	!	!LO:TX:t=P:problem:accentlike diminuendo	!	!	!	!	!
4F\	.	4G\	.	4G\	.	.	4d-X^\	mi-	.	.	(4en\	mi-	.	.	2.b-\_	.	.	(4d-X\	sf	(4d-X/	sf	[2.b-/ [>2.g/	ppp	2.r	.	2.r	.	2.r	.	(4.G\	sf	(4d-X^/	.	2.r	.	2.r	.
8F\	.	8C/	.	8C/	.	.	8c\	-se-	.	.	8g\)	-se-	.	.	.	.	.	8c\)	.	8c/)	.	.	.	.	.	.	.	.	.	.	.	8c/)	.	.	.	.	.
!	!	!	!	!	!	!	!LO:TX:t=P:problem:accentlike diminuendo	!	!	!	!	!	!	!	!	!	!	!	!	!	!	!	!	!	!	!	!	!	!	!	!	!LO:TX:t=P:problem:accentlike diminuendo	!	!	!	!	!
4F\	.	4F\	.	4F\	.	.	4d-^\	-re-	.	.	[4.g\	-re-	.	.	.	.	.	(4d-\	sf	(4d-/	sf	.	.	.	.	.	.	.	.	4F\	.	(4d-^/	.	.	.	.	.
8F\	.	8En\	.	8En\	.	.	8c\	-re	.	.	.	.	.	.	.	.	.	8c\)	.	8c/)	.	.	.	.	.	.	.	.	.	8En\)	.	8c/)	.	.	.	.	.
=28	=28	=28	=28	=28	=28	=28	=28	=28	=28	=28	=28	=28	=28	=28	=28	=28	=28	=28	=28	=28	=28	=28	=28	=28	=28	=28	=28	=28	=28	=28	=28	=28	=28	=28	=28	=28	=28
*rep	*	*rep	*	*	*	*	*	*	*	*	*	*	*	*	*	*	*	*rep	*	*rep	*	*	*	*	*	*	*	*	*	*	*	*	*	*	*	*	*
!	!	!	!	!	!	!	!LO:TX:t=P:problem:accentlike diminuendo	!	!	!	!	!	!	!	!	!	!	!	!	!	!	!	!	!	!	!	!	!	!	!	!	!LO:TX:t=P:problem:accentlike diminuendo	!	!	!	!	!
4F\	.	4G\	.	4G\	.	.	4d-X^\	mi-	.	.	2.g\_	.	.	.	2.b-\_	.	.	(4d-X\	sf	(4d-X/	sf	2.b-/_ 2.g/_>	.	2.r	.	2.r	.	2.r	.	(4.G^<\	.	(4d-X^/	.	2.r	.	2.r	.
8F\	.	8C/	.	8C/	.	.	8c\	-se-	.	.	.	.	.	.	.	.	.	8c\)	.	8c/)	.	.	.	.	.	.	.	.	.	.	.	8c/)	.	.	.	.	.
!	!	!	!	!	!	!	!LO:TX:t=P:problem:accentlike diminuendo	!	!	!	!	!	!	!	!	!	!	!	!	!	!	!	!	!	!	!	!	!	!	!	!	!LO:TX:t=P:problem:accentlike diminuendo	!	!	!	!	!
4F\	.	4F\	.	4F\	.	.	4d-^\	-re-	.	.	.	.	.	.	.	.	.	(4d-\	sf	(4d-/	sf	.	.	.	.	.	.	.	.	4F\	.	(4d-^/	.	.	.	.	.
8F\	.	8En\	.	8En\	.	.	8c\	-re	.	.	.	.	.	.	.	.	.	8c\)	.	8c/)	.	.	.	.	.	.	.	.	.	8En\)	.	8c/)	.	.	.	.	.
*Xrep	*	*Xrep	*	*	*	*	*	*	*	*	*	*	*	*	*	*	*	*Xrep	*	*Xrep	*	*	*	*	*	*	*	*	*	*	*	*	*	*	*	*	*
=29	=29	=29	=29	=29	=29	=29	=29	=29	=29	=29	=29	=29	=29	=29	=29	=29	=29	=29	=29	=29	=29	=29	=29	=29	=29	=29	=29	=29	=29	=29	=29	=29	=29	=29	=29	=29	=29
*rep	*	*	*	*	*	*	*	*	*	*	*	*	*	*	*	*	*	*tremolo	*	*tremolo	*	*	*	*	*	*	*	*	*	*	*	*	*	*	*	*	*
4F\	.	4F\	.	(2.F\	mi-	.	4d-X\	mi-	.	.	4g\]	.	.	.	4b-\]	.	.	32d-X\LLL	.	32d-X/LLL	.	2.b-/_ 2.g/_>	.	2.r	.	2.r	.	2.r	.	(2.F\	.	4.d-X/	.	2.r	.	2.r	.
.	.	.	.	.	.	.	.	.	.	.	.	.	.	.	.	.	.	32d-\	.	32d-/	.	.	.	.	.	.	.	.	.	.	.	.	.	.	.	.	.
.	.	.	.	.	.	.	.	.	.	.	.	.	.	.	.	.	.	32d-\	.	32d-/	.	.	.	.	.	.	.	.	.	.	.	.	.	.	.	.	.
.	.	.	.	.	.	.	.	.	.	.	.	.	.	.	.	.	.	32d-\	.	32d-/	.	.	.	.	.	.	.	.	.	.	.	.	.	.	.	.	.
.	.	.	.	.	.	.	.	.	.	.	.	.	.	.	.	.	.	32d-\	.	32d-/	.	.	.	.	.	.	.	.	.	.	.	.	.	.	.	.	.
.	.	.	.	.	.	.	.	.	.	.	.	.	.	.	.	.	.	32d-\	.	32d-/	.	.	.	.	.	.	.	.	.	.	.	.	.	.	.	.	.
.	.	.	.	.	.	.	.	.	.	.	.	.	.	.	.	.	.	32d-\	.	32d-/	.	.	.	.	.	.	.	.	.	.	.	.	.	.	.	.	.
.	.	.	.	.	.	.	.	.	.	.	.	.	.	.	.	.	.	32d-\	.	32d-/	.	.	.	.	.	.	.	.	.	.	.	.	.	.	.	.	.
8F\	.	8F\	.	.	.	.	8d-\	-se-	.	.	8g\	-re	.	.	8b-\	-bis	.	32d-\	.	32d-/	.	.	.	.	.	.	.	.	.	.	.	.	.	.	.	.	.
.	.	.	.	.	.	.	.	.	.	.	.	.	.	.	.	.	.	32d-\	.	32d-/	.	.	.	.	.	.	.	.	.	.	.	.	.	.	.	.	.
.	.	.	.	.	.	.	.	.	.	.	.	.	.	.	.	.	.	32d-\	.	32d-/	.	.	.	.	.	.	.	.	.	.	.	.	.	.	.	.	.
.	.	.	.	.	.	.	.	.	.	.	.	.	.	.	.	.	.	32d-\JJJ	.	32d-/JJJ	.	.	.	.	.	.	.	.	.	.	.	.	.	.	.	.	.
4F\	.	4F\	.	.	.	.	4dn\	-re-	.	.	4f\	mi-	.	.	4b-\	mi-	.	32dn\LLL	.	32dn/LLL	.	.	.	.	.	.	.	.	.	.	.	4.d/	.	.	.	.	.
.	.	.	.	.	.	.	.	.	.	.	.	.	.	.	.	.	.	32d\	.	32d/	.	.	.	.	.	.	.	.	.	.	.	.	.	.	.	.	.
.	.	.	.	.	.	.	.	.	.	.	.	.	.	.	.	.	.	32d\	.	32d/	.	.	.	.	.	.	.	.	.	.	.	.	.	.	.	.	.
.	.	.	.	.	.	.	.	.	.	.	.	.	.	.	.	.	.	32d\	.	32d/	.	.	.	.	.	.	.	.	.	.	.	.	.	.	.	.	.
.	.	.	.	.	.	.	.	.	.	.	.	.	.	.	.	.	.	32d\	.	32d/	.	.	.	.	.	.	.	.	.	.	.	.	.	.	.	.	.
.	.	.	.	.	.	.	.	.	.	.	.	.	.	.	.	.	.	32d\	.	32d/	.	.	.	.	.	.	.	.	.	.	.	.	.	.	.	.	.
.	.	.	.	.	.	.	.	.	.	.	.	.	.	.	.	.	.	32d\	.	32d/	.	.	.	.	.	.	.	.	.	.	.	.	.	.	.	.	.
.	.	.	.	.	.	.	.	.	.	.	.	.	.	.	.	.	.	32d\	.	32d/	.	.	.	.	.	.	.	.	.	.	.	.	.	.	.	.	.
8F\	.	8F\	.	.	.	.	8d\	-re	.	.	8f\	-se-	.	.	8b-\	-se-	.	32d\	.	32d/	.	.	.	.	.	.	.	.	.	.	.	.	.	.	.	.	.
.	.	.	.	.	.	.	.	.	.	.	.	.	.	.	.	.	.	32d\	.	32d/	.	.	.	.	.	.	.	.	.	.	.	.	.	.	.	.	.
.	.	.	.	.	.	.	.	.	.	.	.	.	.	.	.	.	.	32d\	.	32d/	.	.	.	.	.	.	.	.	.	.	.	.	.	.	.	.	.
.	.	.	.	.	.	.	.	.	.	.	.	.	.	.	.	.	.	32d\JJJ	.	32d/JJJ	.	.	.	.	.	.	.	.	.	.	.	.	.	.	.	.	.
*Xrep	*	*	*	*	*	*	*	*	*	*	*	*	*	*	*	*	*	*	*	*	*	*	*	*	*	*	*	*	*	*	*	*	*	*	*	*	*
=30	=30	=30	=30	=30	=30	=30	=30	=30	=30	=30	=30	=30	=30	=30	=30	=30	=30	=30	=30	=30	=30	=30	=30	=30	=30	=30	=30	=30	=30	=30	=30	=30	=30	=30	=30	=30	=30
4F\	.	4F\	.	4.B-\)	-se-	.	4e-\	mi-	.	.	4.g\	-re-	.	.	4.b-\	-re-	.	32e-X\LLL	.	32e-X/LLL	.	2.b-/] 2.g;/]	.	2.r;	.	2.r;	.	2.r;	.	4.B-\)	.	4.e-/	.	2.r;	.	2.r;	.
.	.	.	.	.	.	.	.	.	.	.	.	.	.	.	.	.	.	32e-\	.	32e-/	.	.	.	.	.	.	.	.	.	.	.	.	.	.	.	.	.
.	.	.	.	.	.	.	.	.	.	.	.	.	.	.	.	.	.	32e-\	.	32e-/	.	.	.	.	.	.	.	.	.	.	.	.	.	.	.	.	.
.	.	.	.	.	.	.	.	.	.	.	.	.	.	.	.	.	.	32e-\	.	32e-/	.	.	.	.	.	.	.	.	.	.	.	.	.	.	.	.	.
.	.	.	.	.	.	.	.	.	.	.	.	.	.	.	.	.	.	32e-\	.	32e-/	.	.	.	.	.	.	.	.	.	.	.	.	.	.	.	.	.
.	.	.	.	.	.	.	.	.	.	.	.	.	.	.	.	.	.	32e-\	.	32e-/	.	.	.	.	.	.	.	.	.	.	.	.	.	.	.	.	.
.	.	.	.	.	.	.	.	.	.	.	.	.	.	.	.	.	.	32e-\	.	32e-/	.	.	.	.	.	.	.	.	.	.	.	.	.	.	.	.	.
.	.	.	.	.	.	.	.	.	.	.	.	.	.	.	.	.	.	32e-\	.	32e-/	.	.	.	.	.	.	.	.	.	.	.	.	.	.	.	.	.
!LO:TX:t=P:problem:skreślona nuta	!	!	!	!	!	!	!	!	!	!	!	!	!	!	!	!	!	!	!	!	!	!	!	!	!	!	!	!	!	!	!	!	!	!	!	!	!
8F\	.	8F\	.	.	.	.	8e-\	-se-	.	.	.	.	.	.	.	.	.	32e-\	.	32e-/	.	.	.	.	.	.	.	.	.	.	.	.	.	.	.	.	.
.	.	.	.	.	.	.	.	.	.	.	.	.	.	.	.	.	.	32e-\	.	32e-/	.	.	.	.	.	.	.	.	.	.	.	.	.	.	.	.	.
.	.	.	.	.	.	.	.	.	.	.	.	.	.	.	.	.	.	32e-\	.	32e-/	.	.	.	.	.	.	.	.	.	.	.	.	.	.	.	.	.
.	.	.	.	.	.	.	.	.	.	.	.	.	.	.	.	.	.	32e-\JJJ	.	32e-/JJJ	.	.	.	.	.	.	.	.	.	.	.	.	.	.	.	.	.
4.F;\	.	4.F;\	.	(4d;\	-re-	.	4en;\	-re-	.	.	4.g;\	-re	.	.	4.b-;\	-re	.	32en;\LLL	.	32en;/LLL	.	.	.	.	.	.	.	.	.	(4d-X;\	sf	4.eX;/	.	.	.	.	.
.	.	.	.	.	.	.	.	.	.	.	.	.	.	.	.	.	.	32e\	.	32e/	.	.	.	.	.	.	.	.	.	.	.	.	.	.	.	.	.
.	.	.	.	.	.	.	.	.	.	.	.	.	.	.	.	.	.	32e\	.	32e/	.	.	.	.	.	.	.	.	.	.	.	.	.	.	.	.	.
.	.	.	.	.	.	.	.	.	.	.	.	.	.	.	.	.	.	32e\	.	32e/	.	.	.	.	.	.	.	.	.	.	.	.	.	.	.	.	.
.	.	.	.	.	.	.	.	.	.	.	.	.	.	.	.	.	.	32e\	.	32e/	.	.	.	.	.	.	.	.	.	.	.	.	.	.	.	.	.
.	.	.	.	.	.	.	.	.	.	.	.	.	.	.	.	.	.	32e\	.	32e/	.	.	.	.	.	.	.	.	.	.	.	.	.	.	.	.	.
.	.	.	.	.	.	.	.	.	.	.	.	.	.	.	.	.	.	32e\	.	32e/	.	.	.	.	.	.	.	.	.	.	.	.	.	.	.	.	.
.	.	.	.	.	.	.	.	.	.	.	.	.	.	.	.	.	.	32e\	.	32e/	.	.	.	.	.	.	.	.	.	.	.	.	.	.	.	.	.
.	.	.	.	8c\)	-re	.	8e\	-re	.	.	.	.	.	.	.	.	.	32e\	.	32e/	.	.	.	.	.	.	.	.	.	8c\)	.	.	.	.	.	.	.
.	.	.	.	.	.	.	.	.	.	.	.	.	.	.	.	.	.	32e\	.	32e/	.	.	.	.	.	.	.	.	.	.	.	.	.	.	.	.	.
.	.	.	.	.	.	.	.	.	.	.	.	.	.	.	.	.	.	32e\	.	32e/	.	.	.	.	.	.	.	.	.	.	.	.	.	.	.	.	.
.	.	.	.	.	.	.	.	.	.	.	.	.	.	.	.	.	.	32e\JJJ	.	32e/JJJ	.	.	.	.	.	.	.	.	.	.	.	.	.	.	.	.	.
*	*	*	*	*	*	*	*	*	*	*	*	*	*	*	*	*	*	*Xtremolo	*	*	*	*	*	*	*	*	*	*	*	*	*	*	*	*	*	*	*
=31	=31	=31	=31	=31	=31	=31	=31	=31	=31	=31	=31	=31	=31	=31	=31	=31	=31	=31	=31	=31	=31	=31	=31	=31	=31	=31	=31	=31	=31	=31	=31	=31	=31	=31	=31	=31	=31
*	*	*	*	*	*	*	*	*	*	*	*	*	*	*	*	*	*	*	*	*	*	*	*	*	*	*	*	*^	*	*	*	*^	*	*	*	*	*
*	*	*	*	*	*	*	*	*	*	*	*	*	*	*	*	*	*	*	*	*	*	*tremolo	*	*	*	*	*	*	*	*	*	*	*	*	*	*	*	*	*
!LO:TX:b:i:t=piu mosso	!	!	!	!	!	!	!	!	!	!	!	!	!	!	!	!	!	!	!	!	!	!	!	!	!	!	!	!	!	!	!	!	!	!	!	!	!	!	!
!LO:TX:a:t=Co Vcello	!	!	!	!	!	!	!	!	!	!	!	!	!	!	!	!	!	!	!LO:DY:rj	!	!LO:DY:rj:t=p.	!	!LO:DY:t=p.	!	!	!	!	!	!	!	!	!	!LO:TX:a:t=2.\n1.	!	!LO:DY:t=p.	!	!	!LO:TX:a:i:t=piu mosso.	!
4F\yy	.	4F\	.	[2.F\	no-	.	(2.f\	no-	.	.	[2.f\	no-	.	.	[2.an\	no-	.	4f\	p	8f/L	p	8an/L	p	2.r	.	2.r	.	2.r	[>2.f\	p	4F\	.	[<2.f\	[>2.a/	p	2.r	.	2.r	.
.	.	.	.	.	.	.	.	.	.	.	.	.	.	.	.	.	.	.	.	8f/	.	8a/	.	.	.	.	.	.	.	.	.	.	.	.	.	.	.	.	.
8ryy	.	8r	.	.	.	.	.	.	.	.	.	.	.	.	.	.	.	8r	.	8f/	.	8a/J	.	.	.	.	.	.	.	.	8r	.	.	.	.	.	.	.	.
!	!	!	!	!	!	!	!LO:TX:t=P:problem:skreślona nuta	!	!	!	!	!	!	!	!	!	!	!	!	!	!	!	!	!	!	!	!	!	!	!	!	!	!	!	!	!	!	!	!
4.F\yy	.	4.F\	.	.	.	.	.	.	.	.	.	.	.	.	.	.	.	4.f\	.	8f/	.	8a/L	.	.	.	.	.	.	.	.	4r	.	.	.	.	.	.	.	.
.	.	.	.	.	.	.	.	.	.	.	.	.	.	.	.	.	.	.	.	8f/	.	8a/	.	.	.	.	.	.	.	.	.	.	.	.	.	.	.	.	.
.	.	.	.	.	.	.	.	.	.	.	.	.	.	.	.	.	.	.	.	8f/J	.	8a/J	.	.	.	.	.	.	.	.	8r	.	.	.	.	.	.	.	.
!!LO:PB:g=original
=32	=32	=32	=32	=32	=32	=32	=32	=32	=32	=32	=32	=32	=32	=32	=32	=32	=32	=32	=32	=32	=32	=32	=32	=32	=32	=32	=32	=32	=32	=32	=32	=32	=32	=32	=32	=32	=32	=32	=32
!	!	!	!	!	!	!	!	!	!	!	!	!	!	!	!	!	!	!	!	!	!	!	!	!	!	!	!	!	!LO:TX:t=P:problem:zakończenie ligatury na dole	!	!	!	!	!	!	!	!	!	!
4.C/yy	.	4.C/	.	2.F\_	.	.	2.c\)	.	.	.	2.f\_	.	.	.	(2.an\]	.	.	4.c/	.	8f/L	.	8an/L	.	2.r	.	2.r	.	2.r	2.f\_	.	2.r	.	2.f\]	2.a/]	.	2.r	.	2.r	.
.	.	.	.	.	.	.	.	.	.	.	.	.	.	.	.	.	.	.	.	8f/	.	8a/	.	.	.	.	.	.	.	.	.	.	.	.	.	.	.	.	.
.	.	.	.	.	.	.	.	.	.	.	.	.	.	.	.	.	.	.	.	8f/	.	8a/	.	.	.	.	.	.	.	.	.	.	.	.	.	.	.	.	.
!LO:SIC:v:s=4.AAn/	!	!LO:SIC:v:s=4.AAn/	!	!	!	!	!	!	!	!	!	!	!	!	!	!	!	!LO:SIC:v:s=4.An/	!	!	!	!LO:TX:b:t=cres-cen-do.:ext2=cd:problem:dynamics with extension lines	!LO:HP:t=cres-cen-do.	!	!	!	!	!	!	!	!	!	!	!	!	!	!	!	!
4.AA-/yy	.	4.AA-/	.	.	.	.	.	.	.	.	.	.	.	.	.	.	.	4.A-/	.	8f/	.	8a/	<	.	.	.	.	.	.	.	.	.	.	.	.	.	.	.	.
.	.	.	.	.	.	.	.	.	.	.	.	.	.	.	.	.	.	.	.	8f/	.	8a/	.	.	.	.	.	.	.	.	.	.	.	.	.	.	.	.	.
.	.	.	.	.	.	.	.	.	.	.	.	.	.	.	.	.	.	.	.	8f/J	.	8a/J	.	.	.	.	.	.	.	.	.	.	.	.	.	.	.	.	.
=33	=33	=33	=33	=33	=33	=33	=33	=33	=33	=33	=33	=33	=33	=33	=33	=33	=33	=33	=33	=33	=33	=33	=33	=33	=33	=33	=33	=33	=33	=33	=33	=33	=33	=33	=33	=33	=33	=33	=33
!	!	!	!	!	!	!	!	!	!	!	!	!	!	!	!	!	!	!	!	!	!	!	!	!	!	!	!	!	!LO:TX:b:t=cres-cen-do.:ext2=cd:problem:dynamics with extension lines	!LO:HP:t=cres-cen-do.	!	!	!LO:TX:a:t=1.\n2.	!LO:TX:b:t=cres-cen-do.:ext2=cd:problem:dynamics with extension lines	!LO:HP:t=cres-cen-do.	!	!	!	!
4.FF/yy	.	4.FF/	.	2.F\_	.	.	[2.An\	.	.	.	2.f\_	.	.	.	[2.cc\)	.	.	4.F/	.	8an/L	.	8cc/L 8f/	.	2.r	.	2.r	.	[2.cc/	2.f\_	<	2.r	.	[2.cc/	[2.a\	<	2.r	.	2.r	.
.	.	.	.	.	.	.	.	.	.	.	.	.	.	.	.	.	.	.	.	8a/	.	8cc/ 8f/	.	.	.	.	.	.	.	.	.	.	.	.	.	.	.	.	.
.	.	.	.	.	.	.	.	.	.	.	.	.	.	.	.	.	.	.	.	8a/	.	8cc/ 8f/	.	.	.	.	.	.	.	.	.	.	.	.	.	.	.	.	.
4.C/yy	.	4.C/	.	.	.	.	.	.	.	.	.	.	.	.	.	.	.	4.c/	.	8a/	.	8cc/ 8f/	.	.	.	.	.	.	.	.	.	.	.	.	.	.	.	.	.
.	.	.	.	.	.	.	.	.	.	.	.	.	.	.	.	.	.	.	.	8a/	.	8cc/ 8f/	.	.	.	.	.	.	.	.	.	.	.	.	.	.	.	.	.
.	.	.	.	.	.	.	.	.	.	.	.	.	.	.	.	.	.	.	.	8a/J	.	8cc/J 8f/	.	.	.	.	.	.	.	.	.	.	.	.	.	.	.	.	.
=34	=34	=34	=34	=34	=34	=34	=34	=34	=34	=34	=34	=34	=34	=34	=34	=34	=34	=34	=34	=34	=34	=34	=34	=34	=34	=34	=34	=34	=34	=34	=34	=34	=34	=34	=34	=34	=34	=34	=34
*	*	*	*	*	*	*	*	*	*	*	*	*	*	*	*	*	*	*	*	*	*	*	*	*	*	*^	*	*	*	*	*	*	*	*	*	*	*	*	*
*	*	*	*	*	*	*	*	*	*	*	*	*	*	*	*	*	*	*	*	*rep	*	*rep	*	*	*	*	*	*	*	*	*	*	*	*	*	*	*	*	*	*
!	!	!	!	!	!	!	!	!	!	!	!	!	!	!	!	!	!	!LO:SIC:v:s=4.An/	!	!	!	!	!	!	!	!	!	!	!	!	!	!	!	!	!	!	!	!	!	!
!LO:SIC:v:s=4.AAn/	!	!LO:SIC:v:s=4.AAn/	!	!	!	!	!	!	!	!	!	!	!	!	!	!	!	!LO:N:vis=4	!	!	!	!	!	!	!	!	!	!	!	!	!	!	!	!	!	!	!	!	!	!
4.AA-/yy	.	4.AA-/	.	2.F\_	.	.	2.A\]	.	.	.	(2.f\]	.	.	.	(2.cc\]	.	.	4.A-/	.	8an/L	.	8cc/L 8f/	.	2.r	.	4r	2.r	.	2.cc/]	2.f\_	.	2.r	.	2.cc/]	2.a\_	.	2.r	.	2.r	.
.	.	.	.	.	.	.	.	.	.	.	.	.	.	.	.	.	.	.	.	8a/	.	8cc/ 8f/	.	.	.	.	.	.	.	.	.	.	.	.	.	.	.	.	.	.
.	.	.	.	.	.	.	.	.	.	.	.	.	.	.	.	.	.	.	.	8a/	.	8cc/ 8f/	.	.	.	8r	.	.	.	.	.	.	.	.	.	.	.	.	.	.
4.F\yy	.	4.F\	.	.	.	.	.	.	.	.	.	.	.	.	.	.	.	4.F/	.	8a/	.	8cc/ 8f/	.	.	.	[<4.cc/	.	p	.	.	.	.	.	.	.	.	.	.	.	.
.	.	.	.	.	.	.	.	.	.	.	.	.	.	.	.	.	.	.	.	8a/	.	8cc/ 8f/	.	.	.	.	.	.	.	.	.	.	.	.	.	.	.	.	.	.
.	.	.	.	.	.	.	.	.	.	.	.	.	.	.	.	.	.	.	.	8a/J	.	8cc/J 8f/	.	.	.	.	.	.	.	.	.	.	.	.	.	.	.	.	.	.
*	*	*	*	*	*	*	*	*	*	*	*	*	*	*	*	*	*	*	*	*Xrep	*	*Xrep	*	*	*	*	*	*	*	*	*	*	*	*	*	*	*	*	*	*
*	*	*	*	*	*	*	*	*	*	*	*	*	*	*	*	*	*	*	*	*	*	*	*	*	*	*v	*v	*	*	*	*	*	*	*	*	*	*	*	*	*
=35	=35	=35	=35	=35	=35	=35	=35	=35	=35	=35	=35	=35	=35	=35	=35	=35	=35	=35	=35	=35	=35	=35	=35	=35	=35	=35	=35	=35	=35	=35	=35	=35	=35	=35	=35	=35	=35	=35	=35
!LO:TX:t=P:problem:skreślona nuta	!	!LO:TX:t=P:problem:skreślona nuta	!	!	!	!	!	!	!	!	!	!	!	!	!	!	!	!	!	!	!	!	!	!	!	!	!	!	!	!	!	!	!	!	!	!LO:TX:b:t=cres-cen-do.:ext2=cd:problem:dynamics with extension lines	!LO:HP:t=cres-cen-do.	!	!
4C\yy	.	4C\	.	2.F\_	.	.	2.c\	.	.	.	[2.an\)	.	.	.	[2.ff\)	.	.	4.D/	.	8cc/L 8d/	.	8ff\L 8an\	.	2.r	.	2.cc/_>	.	[2.ff/	2.f\_	.	[2.d\	.	[2.ff/	2.a\_	.	[2.dd\	<	2.r	.
.	.	.	.	.	.	.	.	.	.	.	.	.	.	.	.	.	.	.	.	8cc/ 8d/	.	8ff\ 8a\	.	.	.	.	.	.	.	.	.	.	.	.	.	.	.	.	.
8ryy	.	8r	.	.	.	.	.	.	.	.	.	.	.	.	.	.	.	.	.	8cc/ 8d/	.	8ff\ 8a\	.	.	.	.	.	.	.	.	.	.	.	.	.	.	.	.	.
!	!	!	!	!	!	!	!	!	!	!	!	!	!	!	!	!	!	!	!	!	!	!	!	!	!	!LO:TX:b:t=cres-cen-do:ext2=cd:problem:dynamics with extension lines	!LO:HP:t=cres-cen-do	!	!	!	!LO:TX:b:t=cres-cen-do.:ext2=cd:problem:dynamics with extension lines	!LO:HP:t=cres-cen-do.	!	!	!	!	!	!	!
4.d^\yy	.	4.d^\	.	.	.	.	.	.	.	.	.	.	.	.	.	.	.	4.d\	.	8cc/ 8d/	.	8ff\ 8a\	.	.	.	.	<	.	.	.	.	<	.	.	.	.	.	.	.
.	.	.	.	.	.	.	.	.	.	.	.	.	.	.	.	.	.	.	.	8cc/ 8d/	.	8ff\ 8a\	.	.	.	.	.	.	.	.	.	.	.	.	.	.	.	.	.
.	.	.	.	.	.	.	.	.	.	.	.	.	.	.	.	.	.	.	.	8cc/J 8d/	.	8ff\J 8a\	.	.	.	.	.	.	.	.	.	.	.	.	.	.	.	.	.
=36	=36	=36	=36	=36	=36	=36	=36	=36	=36	=36	=36	=36	=36	=36	=36	=36	=36	=36	=36	=36	=36	=36	=36	=36	=36	=36	=36	=36	=36	=36	=36	=36	=36	=36	=36	=36	=36	=36	=36
*	*	*	*	*	*	*	*	*	*	*	*	*	*	*	*	*	*	*	*	*rep	*	*rep	*	*	*	*	*	*	*	*	*	*	*	*	*	*	*	*	*
4.c^\yy	.	4.c^\	.	(2.F\]	.	.	2.d\	.	.	.	(2.a\]	.	.	.	2.ff\_	.	.	4.c/	.	8cc/L 8d/	.	8ff\L 8an\	.	2.r	.	2.cc/]	.	2.ff/]	2.f\]	.	2.d\_	.	2.ff/_	2.a\]	.	2.dd\_	.	2.r	.
.	.	.	.	.	.	.	.	.	.	.	.	.	.	.	.	.	.	.	.	8cc/ 8d/	.	8ff\ 8a\	.	.	.	.	.	.	.	.	.	.	.	.	.	.	.	.	.
.	.	.	.	.	.	.	.	.	.	.	.	.	.	.	.	.	.	.	.	8cc/ 8d/	.	8ff\ 8a\	.	.	.	.	.	.	.	.	.	.	.	.	.	.	.	.	.
!LO:SIC:v:s=4.An\	!	!LO:SIC:v:s=4.An\	!	!	!	!	!	!	!	!	!	!	!	!	!	!	!	!LO:SIC:v:s=4.An/	!	!	!	!	!	!	!	!	!	!	!	!	!	!	!	!	!	!	!	!	!
4.A-^\yy	.	4.A-^\	.	.	.	.	.	.	.	.	.	.	.	.	.	.	.	4.A-/	.	8cc/ 8d/	.	8ff\ 8a\	.	.	.	.	.	.	.	.	.	.	.	.	.	.	.	.	.
.	.	.	.	.	.	.	.	.	.	.	.	.	.	.	.	.	.	.	.	8cc/ 8d/	.	8ff\ 8a\	.	.	.	.	.	.	.	.	.	.	.	.	.	.	.	.	.
.	.	.	.	.	.	.	.	.	.	.	.	.	.	.	.	.	.	.	.	8cc/J 8d/	.	8ff\J 8a\	.	.	.	.	.	.	.	.	.	.	.	.	.	.	.	.	.
*	*	*	*	*	*	*	*	*	*	*	*	*	*	*	*	*	*	*	*	*Xrep	*	*Xrep	*	*	*	*	*	*	*	*	*	*	*	*	*	*	*	*	*
=37	=37	=37	=37	=37	=37	=37	=37	=37	=37	=37	=37	=37	=37	=37	=37	=37	=37	=37	=37	=37	=37	=37	=37	=37	=37	=37	=37	=37	=37	=37	=37	=37	=37	=37	=37	=37	=37	=37	=37
*	*	*	*	*	*	*	*	*	*	*	*	*	*	*	*	*	*	*	*	*	*	*	*	*	*	*^	*	*	*	*	*	*	*	*	*	*	*	*	*
!	!	!	!	!	!	!	!	!	!	!	!	!	!	!	!	!	!	!	!	!	!	!	!	!	!	!LO:TX:t=P:problem:skreślone nuty	!	!	!	!	!	!	!	!	!	!	!	!	!	!
4.F^\yy	.	4.F^\	.	[2.B-\)	.	.	2.d\	.	.	.	(2.b-\)	.	.	.	2.ff\_	.	.	4.F/	.	8dd/L 8d/	.	8ff\L 8b-\	.	2.r	.	(2.b-X/	2.r	.	2.b-/	2.f\	[[	2.d\]	.	2.ff/]	[2.b-\	[	2.dd\_	.	2.r	.
.	.	.	.	.	.	.	.	.	.	.	.	.	.	.	.	.	.	.	.	8dd/ 8d/	.	8ff\ 8b-\	.	.	.	.	.	.	.	.	.	.	.	.	.	.	.	.	.	.
.	.	.	.	.	.	.	.	.	.	.	.	.	.	.	.	.	.	.	.	8dd/ 8d/	.	8ff\ 8b-\	.	.	.	.	.	.	.	.	.	.	.	.	.	.	.	.	.	.
4.D^/yy	.	4.D^/	.	.	.	.	.	.	.	.	.	.	.	.	.	.	.	4.D/	.	8dd/ 8d/	.	8ff\ 8b-\	[	.	.	.	.	[[	.	.	.	.	.	.	.	.	.	.	.	.
.	.	.	.	.	.	.	.	.	.	.	.	.	.	.	.	.	.	.	.	8dd/ 8d/	.	8ff\ 8b-\	.	.	.	.	.	.	.	.	.	.	.	.	.	.	.	.	.	.
.	.	.	.	.	.	.	.	.	.	.	.	.	.	.	.	.	.	.	.	8dd/J 8d/	.	8ff\J 8b-\	.	.	.	.	.	.	.	.	.	.	.	.	.	.	.	[	.	.
=38	=38	=38	=38	=38	=38	=38	=38	=38	=38	=38	=38	=38	=38	=38	=38	=38	=38	=38	=38	=38	=38	=38	=38	=38	=38	=38	=38	=38	=38-	=38-	=38-	=38	=38	=38	=38	=38	=38	=38	=38	=38
4.BB-^/yy	.	4.BB-^/	.	2.B-\]	.	.	2.d\	.	.	.	2.f\)	.	.	.	2.ff\]	.	.	4.F/ 4.D/	.	8dd/L 8f/	.	8gg\L 8b-\	.	2.r	.	2.dd/)	2.r	.	2.b-/	2.f\	.	2.d\	[[	2.gg/	2.b-\]	.	2.dd\]	.	2.r	.
.	.	.	.	.	.	.	.	.	.	.	.	.	.	.	.	.	.	.	.	8dd/ 8f/	.	8gg\ 8b-\	.	.	.	.	.	.	.	.	.	.	.	.	.	.	.	.	.	.
.	.	.	.	.	.	.	.	.	.	.	.	.	.	.	.	.	.	.	.	8dd/ 8f/	.	8gg\ 8b-\	.	.	.	.	.	.	.	.	.	.	.	.	.	.	.	.	.	.
!LO:TX:b:t=g	!	!LO:TX:b:t=g	!	!	!	!	!	!	!	!	!	!	!	!	!	!	!	!	!	!	!	!	!	!	!	!	!	!	!	!	!	!	!	!	!	!	!	!	!	!
!LO:TX:t=P:problem:skreślona nuta	!	!LO:TX:t=P:problem:skreślona nuta	!	!	!	!	!	!	!	!	!	!	!	!	!	!	!	!	!	!	!	!	!	!	!	!	!	!	!	!	!	!	!	!	!	!	!	!	!	!
4.GG^\yy	.	4.GG^\	.	.	.	.	.	.	.	.	.	.	.	.	.	.	.	4.F/ 4.D/	.	8dd/ 8f/	.	8gg\ 8b-\	.	.	.	.	.	.	.	.	.	.	.	.	.	.	.	.	.	.
.	.	.	.	.	.	.	.	.	.	.	.	.	.	.	.	.	.	.	.	8dd/ 8f/	.	8gg\ 8b-\	.	.	.	.	.	.	.	.	.	.	.	.	.	.	.	.	.	.
.	.	.	.	.	.	.	.	.	.	.	.	.	.	.	.	.	.	.	.	8dd/J 8f/	.	8gg\J 8b-\	.	.	.	.	.	.	.	.	.	.	.	.	.	.	.	.	.	.
*	*	*	*	*	*	*	*	*	*	*	*	*	*	*	*	*	*	*	*	*	*	*	*	*	*	*	*	*	*	*	*	*	*	*v	*v	*	*	*	*	*
!!LO:PB:g=original
=39	=39	=39	=39	=39	=39	=39	=39	=39	=39	=39	=39	=39	=39	=39	=39	=39	=39	=39	=39	=39	=39	=39	=39	=39	=39	=39	=39	=39	=39	=39	=39	=39	=39	=39	=39	=39	=39	=39	=39
*	*	*	*	*	*	*	*	*	*	*	*	*	*	*	*	*	*	*	*	*	*	*	*	*	*	*	*	*	*	*	*	*	*	*	*	*	*	*^	*
!	!	!	!	!	!	!	!	!	!	!	!	!	!	!	!	!	!	!	!	!	!LO:DY:rj	!	!LO:DY:rj	!LO:TX:t=P:problem:zmiana kolejności instrumentów	!LO:DY:t=ff.:rj	!	!	!LO:DY:t=ff.:rj	!	!	!LO:DY:t=ff.:rj	!	!LO:DY:rj:t=ff.	!	!LO:DY:rj:t=ff.	!	!LO:DY:rj:t=ff.	!	!	!LO:DY:rj:t=ff.
4F\	.	4F\	.	[2.F\	.	.	[2.c\	.	.	.	[2.an\	.	.	.	[2.ff\	.	.	4F/	ff	32ff\LLL 32an\	ff	32aan\LLL 32an\	ff	2.F\	ff	[2.ff/	[2.cc\	ff	[2.cc/	[2.f\	ff	[2.An\	ff	[2.aa\ [2.a\	ff	[2.ff\	ff	[2.fff/	[>2.fff\	ff
.	.	.	.	.	.	.	.	.	.	.	.	.	.	.	.	.	.	.	.	32ff\ 32a\	.	32aa\ 32a\	.	.	.	.	.	.	.	.	.	.	.	.	.	.	.	.	.	.
.	.	.	.	.	.	.	.	.	.	.	.	.	.	.	.	.	.	.	.	32ff\ 32a\	.	32aa\ 32a\	.	.	.	.	.	.	.	.	.	.	.	.	.	.	.	.	.	.
.	.	.	.	.	.	.	.	.	.	.	.	.	.	.	.	.	.	.	.	32ff\ 32a\	.	32aa\ 32a\	.	.	.	.	.	.	.	.	.	.	.	.	.	.	.	.	.	.
.	.	.	.	.	.	.	.	.	.	.	.	.	.	.	.	.	.	.	.	32ff\ 32a\	.	32aa\ 32a\	.	.	.	.	.	.	.	.	.	.	.	.	.	.	.	.	.	.
.	.	.	.	.	.	.	.	.	.	.	.	.	.	.	.	.	.	.	.	32ff\ 32a\	.	32aa\ 32a\	.	.	.	.	.	.	.	.	.	.	.	.	.	.	.	.	.	.
.	.	.	.	.	.	.	.	.	.	.	.	.	.	.	.	.	.	.	.	32ff\ 32a\	.	32aa\ 32a\	.	.	.	.	.	.	.	.	.	.	.	.	.	.	.	.	.	.
.	.	.	.	.	.	.	.	.	.	.	.	.	.	.	.	.	.	.	.	32ff\ 32a\	.	32aa\ 32a\	.	.	.	.	.	.	.	.	.	.	.	.	.	.	.	.	.	.
8r	.	8r	.	.	.	.	.	.	.	.	.	.	.	.	.	.	.	8r	.	32ff\ 32a\	.	32aa\ 32a\	.	.	.	.	.	.	.	.	.	.	.	.	.	.	.	.	.	.
.	.	.	.	.	.	.	.	.	.	.	.	.	.	.	.	.	.	.	.	32ff\ 32a\	.	32aa\ 32a\	.	.	.	.	.	.	.	.	.	.	.	.	.	.	.	.	.	.
.	.	.	.	.	.	.	.	.	.	.	.	.	.	.	.	.	.	.	.	32ff\ 32a\	.	32aa\ 32a\	.	.	.	.	.	.	.	.	.	.	.	.	.	.	.	.	.	.
.	.	.	.	.	.	.	.	.	.	.	.	.	.	.	.	.	.	.	.	32ff\ 32a\	.	32aa\ 32a\	.	.	.	.	.	.	.	.	.	.	.	.	.	.	.	.	.	.
*	*	*	*	*	*	*	*	*	*	*	*	*	*	*	*	*	*	*tremolo	*	*	*	*	*	*	*	*	*	*	*	*	*	*	*	*	*	*	*	*	*	*
4F\	.	4F^\	.	.	.	.	.	.	.	.	.	.	.	.	.	.	.	32f\LLL	.	32ff\ 32a\	.	32aa\ 32a\	.	.	.	.	.	.	.	.	.	.	.	.	.	.	.	.	.	.
.	.	.	.	.	.	.	.	.	.	.	.	.	.	.	.	.	.	32f\	.	32ff\ 32a\	.	32aa\ 32a\	.	.	.	.	.	.	.	.	.	.	.	.	.	.	.	.	.	.
.	.	.	.	.	.	.	.	.	.	.	.	.	.	.	.	.	.	32f\	.	32ff\ 32a\	.	32aa\ 32a\	.	.	.	.	.	.	.	.	.	.	.	.	.	.	.	.	.	.
.	.	.	.	.	.	.	.	.	.	.	.	.	.	.	.	.	.	32f\	.	32ff\ 32a\	.	32aa\ 32a\	.	.	.	.	.	.	.	.	.	.	.	.	.	.	.	.	.	.
.	.	.	.	.	.	.	.	.	.	.	.	.	.	.	.	.	.	32f\	.	32ff\ 32a\	.	32aa\ 32a\	.	.	.	.	.	.	.	.	.	.	.	.	.	.	.	.	.	.
.	.	.	.	.	.	.	.	.	.	.	.	.	.	.	.	.	.	32f\	.	32ff\ 32a\	.	32aa\ 32a\	.	.	.	.	.	.	.	.	.	.	.	.	.	.	.	.	.	.
.	.	.	.	.	.	.	.	.	.	.	.	.	.	.	.	.	.	32f\	.	32ff\ 32a\	.	32aa\ 32a\	.	.	.	.	.	.	.	.	.	.	.	.	.	.	.	.	.	.
.	.	.	.	.	.	.	.	.	.	.	.	.	.	.	.	.	.	32f\	.	32ff\ 32a\	.	32aa\ 32a\	.	.	.	.	.	.	.	.	.	.	.	.	.	.	.	.	.	.
8r	.	8r	.	.	.	.	.	.	.	.	.	.	.	.	.	.	.	32f\	.	32ff\ 32a\	.	32aa\ 32a\	.	.	.	.	.	.	.	.	.	.	.	.	.	.	.	.	.	.
.	.	.	.	.	.	.	.	.	.	.	.	.	.	.	.	.	.	32f\	.	32ff\ 32a\	.	32aa\ 32a\	.	.	.	.	.	.	.	.	.	.	.	.	.	.	.	.	.	.
.	.	.	.	.	.	.	.	.	.	.	.	.	.	.	.	.	.	32f\	.	32ff\ 32a\	.	32aa\ 32a\	.	.	.	.	.	.	.	.	.	.	.	.	.	.	.	.	.	.
.	.	.	.	.	.	.	.	.	.	.	.	.	.	.	.	.	.	32f\JJJ	.	32ff\JJJ 32a\	.	32aa\JJJ 32a\	.	.	.	.	.	.	.	.	.	.	.	.	.	.	.	.	.	.
=40	=40	=40	=40	=40	=40	=40	=40	=40	=40	=40	=40	=40	=40	=40	=40	=40	=40	=40	=40	=40	=40	=40	=40	=40	=40	=40	=40	=40	=40	=40	=40	=40	=40	=40	=40	=40	=40	=40	=40	=40
*	*	*	*	*	*	*	*	*	*	*	*	*	*	*	*	*	*	*	*	*rep	*	*rep	*	*	*	*	*	*	*	*	*	*	*	*	*	*	*	*	*	*
4C\	.	4C^/	.	2.F\_	.	.	2.c\]	.	.	.	2.a\]	.	.	.	2.ff\]	.	.	32c\LLL	.	32ff\LLL 32an\	.	32aan\LLL 32an\	.	4.C/	.	2.ff/_	2.cc\_	.	2.cc/_	2.f\_	.	2.A\]	.	2.aa\_ 2.a\_	.	2.ff\_	.	2.fff/_	2.fff\_>	.
.	.	.	.	.	.	.	.	.	.	.	.	.	.	.	.	.	.	32c\	.	32ff\ 32a\	.	32aa\ 32a\	.	.	.	.	.	.	.	.	.	.	.	.	.	.	.	.	.	.
.	.	.	.	.	.	.	.	.	.	.	.	.	.	.	.	.	.	32c\	.	32ff\ 32a\	.	32aa\ 32a\	.	.	.	.	.	.	.	.	.	.	.	.	.	.	.	.	.	.
.	.	.	.	.	.	.	.	.	.	.	.	.	.	.	.	.	.	32c\	.	32ff\ 32a\	.	32aa\ 32a\	.	.	.	.	.	.	.	.	.	.	.	.	.	.	.	.	.	.
.	.	.	.	.	.	.	.	.	.	.	.	.	.	.	.	.	.	32c\	.	32ff\ 32a\	.	32aa\ 32a\	.	.	.	.	.	.	.	.	.	.	.	.	.	.	.	.	.	.
.	.	.	.	.	.	.	.	.	.	.	.	.	.	.	.	.	.	32c\	.	32ff\ 32a\	.	32aa\ 32a\	.	.	.	.	.	.	.	.	.	.	.	.	.	.	.	.	.	.
.	.	.	.	.	.	.	.	.	.	.	.	.	.	.	.	.	.	32c\	.	32ff\ 32a\	.	32aa\ 32a\	.	.	.	.	.	.	.	.	.	.	.	.	.	.	.	.	.	.
.	.	.	.	.	.	.	.	.	.	.	.	.	.	.	.	.	.	32c\	.	32ff\ 32a\	.	32aa\ 32a\	.	.	.	.	.	.	.	.	.	.	.	.	.	.	.	.	.	.
8r	.	8r	.	.	.	.	.	.	.	.	.	.	.	.	.	.	.	32c\	.	32ff\ 32a\	.	32aa\ 32a\	.	.	.	.	.	.	.	.	.	.	.	.	.	.	.	.	.	.
.	.	.	.	.	.	.	.	.	.	.	.	.	.	.	.	.	.	32c\	.	32ff\ 32a\	.	32aa\ 32a\	.	.	.	.	.	.	.	.	.	.	.	.	.	.	.	.	.	.
.	.	.	.	.	.	.	.	.	.	.	.	.	.	.	.	.	.	32c\	.	32ff\ 32a\	.	32aa\ 32a\	.	.	.	.	.	.	.	.	.	.	.	.	.	.	.	.	.	.
.	.	.	.	.	.	.	.	.	.	.	.	.	.	.	.	.	.	32c\JJJ	.	32ff\ 32a\	.	32aa\ 32a\	.	.	.	.	.	.	.	.	.	.	.	.	.	.	.	.	.	.
!LO:SIC:v:s=4An/	!	!LO:SIC:v:s=4AAn/	!	!	!	!	!	!	!	!	!	!	!	!	!	!	!	!	!	!	!	!	!	!LO:SIC:v:s=4AAn/	!	!	!	!	!	!	!	!	!	!	!	!	!	!	!	!
4A-\	.	4AA-^/	.	.	.	.	.	.	.	.	.	.	.	.	.	.	.	32An/LLL	.	32ff\ 32a\	.	32aa\ 32a\	.	4AA-/	.	.	.	.	.	.	.	.	.	.	.	.	.	.	.	.
.	.	.	.	.	.	.	.	.	.	.	.	.	.	.	.	.	.	32A/	.	32ff\ 32a\	.	32aa\ 32a\	.	.	.	.	.	.	.	.	.	.	.	.	.	.	.	.	.	.
.	.	.	.	.	.	.	.	.	.	.	.	.	.	.	.	.	.	32A/	.	32ff\ 32a\	.	32aa\ 32a\	.	.	.	.	.	.	.	.	.	.	.	.	.	.	.	.	.	.
.	.	.	.	.	.	.	.	.	.	.	.	.	.	.	.	.	.	32A/	.	32ff\ 32a\	.	32aa\ 32a\	.	.	.	.	.	.	.	.	.	.	.	.	.	.	.	.	.	.
.	.	.	.	.	.	.	.	.	.	.	.	.	.	.	.	.	.	32A/	.	32ff\ 32a\	.	32aa\ 32a\	.	.	.	.	.	.	.	.	.	.	.	.	.	.	.	.	.	.
.	.	.	.	.	.	.	.	.	.	.	.	.	.	.	.	.	.	32A/	.	32ff\ 32a\	.	32aa\ 32a\	.	.	.	.	.	.	.	.	.	.	.	.	.	.	.	.	.	.
.	.	.	.	.	.	.	.	.	.	.	.	.	.	.	.	.	.	32A/	.	32ff\ 32a\	.	32aa\ 32a\	.	.	.	.	.	.	.	.	.	.	.	.	.	.	.	.	.	.
.	.	.	.	.	.	.	.	.	.	.	.	.	.	.	.	.	.	32A/	.	32ff\ 32a\	.	32aa\ 32a\	.	.	.	.	.	.	.	.	.	.	.	.	.	.	.	.	.	.
8r	.	8r	.	.	.	.	.	.	.	.	.	.	.	.	.	.	.	32A/	.	32ff\ 32a\	.	32aa\ 32a\	.	8r	.	.	.	.	.	.	.	.	.	.	.	.	.	.	.	.
.	.	.	.	.	.	.	.	.	.	.	.	.	.	.	.	.	.	32A/	.	32ff\ 32a\	.	32aa\ 32a\	.	.	.	.	.	.	.	.	.	.	.	.	.	.	.	.	.	.
.	.	.	.	.	.	.	.	.	.	.	.	.	.	.	.	.	.	32A/	.	32ff\ 32a\	.	32aa\ 32a\	.	.	.	.	.	.	.	.	.	.	.	.	.	.	.	.	.	.
.	.	.	.	.	.	.	.	.	.	.	.	.	.	.	.	.	.	32A/JJJ	.	32ff\JJJ 32a\	.	32aa\JJJ 32a\	.	.	.	.	.	.	.	.	.	.	.	.	.	.	.	.	.	.
*	*	*	*	*	*	*	*	*	*	*	*	*	*	*	*	*	*	*Xtremolo	*	*Xrep	*	*Xrep	*	*	*	*	*	*	*	*	*	*	*	*	*	*	*	*	*	*
*	*	*	*	*	*	*	*	*	*	*	*	*	*	*	*	*	*	*	*	*Xtremolo	*	*Xtremolo	*	*	*	*	*	*	*	*	*	*	*	*	*	*	*	*	*	*
=41	=41	=41	=41	=41	=41	=41	=41	=41	=41	=41	=41	=41	=41	=41	=41	=41	=41	=41	=41	=41	=41	=41	=41	=41	=41	=41	=41	=41	=41	=41	=41	=41	=41	=41	=41	=41	=41	=41	=41	=41
*	*	*	*	*	*	*	*	*	*	*	*	*	*	*	*	*	*	*	*	*	*	*	*	*	*	*	*	*	*	*	*	*	*	*^	*	*	*	*	*	*
!	!	!	!	!	!	!	!	!	!	!	!LO:SIC:v:s=4an	!	!	!	!	!	!	!	!	!	!	!	!	!	!	!	!	!	!	!	!	!LO:SIC:v:s=4An\	!	!	!	!	!	!	!LO:TX:a:i:t=lento assai.	!	!
4F\	.	4FF/	.	4F\]	-bis	.	4c\	-bis	.	.	4a-\	-bis.	.	.	4f/	bis.	.	4F/	.	4ff\ 4an\	.	4aa-\ 4a-\	.	4FF/	.	4ff/]	4cc\]	.	4cc/]	4f\]	.	4A-\	.	4aa\] 4a\]	4.ryy	.	4ff\]	.	4fff/]	4fff\]	.
!	!	!	!	!	!	!	!	!	!	!	!	!	!	!	!LO:TX:a:t=lento assai.	!	!	!LO:TX:t=P:problem:brak pauzy 8	!	!	!	!LO:TX:a:t=lento assai.	!	!	!	!	!	!	!	!	!	!LO:TX:t=P:problem:brak pauzy 8	!	!	!	!	!	!	!	!	!
8r	.	8r	.	8r	.	.	8r	.	.	.	8r	.	.	.	8r	.	.	8ryy	.	8r	.	8r	.	8r	.	8r	8ryy	.	8r	8r	.	8ryy	.	8r	.	.	8r	.	8r	8r	.
!	!	!	!	!	!	!	!	!	!	!	!	!	!	!	!	!	!	!	!	!	!	!	!	!	!	!	!	!	!	!	!	!	!	!	!	!	!LO:SIC:v:s=4.([an/	!	!	!	!
!LO:TX:b:i:t=lento assai.	!	!LO:N:vis=4	!	!	!	!	!	!	!	!	!LO:SIC:v:s=4.an	!	!	!	!LO:TX:t=P:problem:skreślona nuta	!	!	!	!	!	!	!	!	!	!	!	!	!	!	!	!	!LO:SIC:v:s=4A.n	!	!LO:SIC:v:s=4.[an\:t=druga warstwa	!	!	!LO:N:vis=4	!	!	!	!
!	!LO:DY:t=fpp.	!	!LO:DY:t=fpp.	!	!	!LO:DY:t=fpp.	!	!	!	!LO:DY:rj:t=fpp.	!	!	!	!LO:DY:t=fpp.	!	!	!LO:DY:b:t=fpp.	!	!LO:DY:rj:t=fpp.	!	!	!	!LO:DY:t=fpp.:rj	!	!LO:DY:t=fpp.	!	!	!LO:DY:t=fpp.	!	!	!LO:DY:t=fpp.	!	!LO:DY:t=fpp.	!	!	!LO:DY:t=fpp.	!	!	!	!	!LO:DY:t=fpp.
[4.F\	fpp	[4.FF/	fpp	[4.F\	A-	fp	[4.c\	A-	.	fpp	[4.a-\	A-	.	fpp	([4.cc\	A-	fp	([4.An/	fpp	([4.c/	.	(>[4.c/	fpp	([4.F\	fpp	(<[4.cc/	4ryy	fpp	([4.cc/	[4.f\	fpp	([4.A-\	fp	([4.cc/	[4.a-X\	fpp	([4.a-/	fpp	([4.cc/	[>4.cc\	fpp
.	.	.	.	.	.	.	.	.	.	.	.	.	.	.	.	.	.	.	.	.	.	.	.	.	.	.	8ryy	.	.	.	.	.	.	.	.	.	.	.	.	.	.
*	*	*	*	*	*	*	*	*	*	*	*	*	*	*	*	*	*	*	*	*	*	*	*	*	*	*v	*v	*	*	*	*	*	*	*	*	*	*	*	*	*	*
=42	=42	=42	=42	=42	=42	=42	=42	=42	=42	=42	=42	=42	=42	=42	=42	=42	=42	=42	=42	=42	=42	=42	=42	=42	=42	=42	=42	=42	=42	=42	=42	=42	=42	=42	=42	=42	=42	=42	=42	=42
!	!	!	!	!	!	!	!LO:TX:t=P:problem:skreślona nuta	!	!	!	!LO:SIC:v:s=4.an	!	!	!	!LO:TX:t=P:problem:skreślona nuta	!	!	!	!	!	!	!	!	!	!	!	!	!	!	!	!LO:SIC:v:s=4.An\]	!	!LO:SIC:v:s=4.an\]:t=druga warstwa	!	!	!LO:SIC:v:s=4.an/]	!	!	!	!
2.F\_	.	2.FF/_	.	2.F\]	.	.	4.c/]	.	.	.	4.a-\]	.	.	.	4.cc\]	.	.	4.A/]	.	4.c/]	.	4.c/]	.	2.F\]	.	4.cc/]	.	4.cc/]	2.f\]	.	4.A-\]	.	4.cc/]	4.a-\]	.	4.a-/]	.	4.cc/]	4.cc\]	.
!	!	!	!	!	!	!	!LO:TX:t=P:problem:skreślona nuta	!	!	!	!	!	!	!	!	!	!	!	!	!	!	!	!	!	!	!LO:TX:t=P:problem:skreślona nuta	!	!	!	!	!	!	!	!	!	!	!	!	!	!
.	.	.	.	.	.	.	4.en/	.	.	.	4.g\	.	.	.	4.b-\)	.	.	4.G/	.	4.B-/)	.	4.en/	.	.	.	4.ee-\	.	4.b-\	.	.	4.G\	.	4.b-/	4.g\	.	4.g/	.	4.b-/	4.b-\	.
*	*	*	*	*	*	*	*	*	*	*	*	*	*	*	*	*	*	*	*	*	*	*	*	*	*	*	*	*	*	*	*	*	*v	*v	*	*	*	*	*	*
=43	=43	=43	=43	=43	=43	=43	=43	=43	=43	=43	=43	=43	=43	=43	=43	=43	=43	=43	=43	=43	=43	=43	=43	=43	=43	=43	=43	=43	=43	=43	=43	=43	=43	=43	=43	=43	=43	=43	=43
!LO:TX:b:t=SMoniuszko\n1849.\nListopad 1.8.\nWilno	!	!	!	!	!	!	!	!	!	!	!LO:N:vis=2	!	!	!	!LO:N:vis=2	!	!	!	!	!	!	!LO:N:vis=2	!	!	!	!LO:TX:t=P:problem:skreślone nuty	!	!LO:TX:t=P:problem:skreślona nuta	!	!	!LO:N:vis=2	!	!LO:N:vis=2	!	!	!	!	!	!
2.F;\]	.	2.FF;/]	.	2.F\ 2.FF;\	-men.	.	2.f;\	-men!	.	.	2.c;\	-men!	.	.	2.an;\	-men!	.	2.C;/)	.	2.An;/	.	2.f;/)	.	2.FF;/)	.	2.ff;/)	.	2.f;/)	2.F\	.	2.An;\)	.	2.a\ 2.f;\)	ff	2.f;/)	.	2.an;/)	2.an\	.
*	*	*	*	*	*	*	*	*	*	*	*	*	*	*	*	*	*	*	*	*	*	*	*	*	*	*	*	*v	*v	*	*	*	*	*	*	*	*v	*v	*
==	==	==	==	==	==	==	==	==	==	==	==	==	==	==	==	==	==	==	==	==	==	==	==	==	==	==	==	==	==	==	==	==	==	==	==	==	==
*-	*-	*-	*-	*-	*-	*-	*-	*-	*-	*-	*-	*-	*-	*-	*-	*-	*-	*-	*-	*-	*-	*-	*-	*-	*-	*-	*-	*-	*-	*-	*-	*-	*-	*-	*-	*-	*-
!!!system-decoration: (s1,s2,s3,s4,s5,s6,s7,s8,s9,s10,{s11,s12,s13,s14},s15,s16)
!!!RDF**kern: > = above
!!!RDF**kern: < = below
!!!RDF**kern: | = vertical stroke
!!!EED: Andrzej Borzym
!!!EST: 2021-06-02
!!!ENC: Andrzej Kubiczek
!!!END: 2021-04-18
